!!!!SEGMENT: pl-sa--281-a-vii-41_brentner-johann-joseph-ignaz--gaudete-ridete-mortales.krn
!!!id: 17xx:555
!!!COM: Brentner, Johann Joseph Ignaz
!!!COM-rism: pe30000477
!!!CDT: 1689/11/03-1742/06/28
!!!CNT: Czech
!!!OTL: Gaudete ridete mortales
!!!PDT: 1728
!!!SMS-siglum: PL-SA
!!!SMS-shelfmark: 281/A VII 41
!!!NIFC-rismID: 1001069325
!!!URL-scan: http://bc.bdsandomierz.pl/dlibra/publication/1764/edition/1732/content
!!!ONB-nifc:
!!!SMS-variant:
!!!SMS-altvar:
**kern	**fba	**kern	**dynam	**kern	**dynam	**kern	**text	**kern	**kern
*part6	*	*part5	*part5	*part4	*part4	*part3	*part3	*part2	*part1
*staff6	*	*staff5	*	*staff4	*	*staff3	*staff3	*staff2	*staff1
*I"Organo.	*	*I"Violino Secondo.	*	*I"Violino Primo	*	*I"Canto Solo.	*	*I"Valtorno Secundo et G.	*I"Valtorno Primo et G.
*I'org	*	*I'vl 2	*	*I'vl 1	*	*I'S solo	*	*I'cor 2 in G	*I'cor 1 in G
*clefF4	*	*clefG2	*	*clefG2	*	*clefC1	*	*clefG2	*clefG2
*	*	*	*	*	*	*	*	*ITrd3c5	*ITrd3c5
*k[f#]	*	*k[f#]	*	*k[f#]	*	*k[f#]	*	*k[f#]	*k[f#]
*M2/2	*	*M2/2	*	*M2/2	*	*M2/2	*	*M2/2	*M2/2
*met(c|)	*	*met(c|)	*	*met(c|)	*	*met(c|)	*	*met(c|)	*met(c|)
*	*	*	*	*	*below	*	*	*	*
=1	=1	=1	=1	=1	=1	=1	=1	=1	=1
!LO:SIC:o:s:=:v:4\, 8\, 16\:global	!	!	!	!LO:SIC:o:s:=:v:4\, 8\, 16\:global	!	!	!	!	!LO:TX:b:t=Gaudete
!	!	!LO:SIC:o:s:=:v:4\, 8\, 16\:global	!	!LO:SIC:o:s:=:v:krzyżyki f# i ff# jeden nad drugim	!	!	!	!LO:TX:a:t=Gaudete	!LO:SIC:o:s:=:v:dwa razy wpisane metrum
!LO:SIC:o:s:=:v:krzyżyki FF# i F# jeden nad drugim (w pierwszym systemie na dole omyłkowo wpisany krzyćyk AA#)	!	!LO:SIC:o:s:=:v:krzyżyki f# i ff# jeden nad drugim	!	!LO:TX:rj:b:t=Gaudete	!	!LO:SIC:o:s:=:v:2\, 4\, 8\, 16\:global	!	!LO:SIC:o:s:=:v:2\, 4\, 8\, 16\:global	!LO:SIC:o:s:=:v:2\, 4\, 8\, 16\:global
8G\L	.	8gg\L	.	8gg\L	.	00r	.	8b\L	8dd\L
8A\	.	8dd\J	.	8dd\J	.	.	.	8g\J	8b\
8B\	.	8dd\L	.	8dd\L	.	.	.	8g\L	8b\
8A\J	.	16ee\L	.	16ee\L	.	.	.	16a\L	8dd\J
.	.	16ff#\JJ	.	16ff#\JJ	.	.	.	16b\JJ	.
8G\L	.	8gg\L	.	8gg\L	.	.	.	8b\L	8dd\L
8A\	.	8b\J	.	8b\J	.	.	.	8g\	8b\
8B\	.	8b\L	.	8b\L	.	.	.	8g\	8b\
8G\J	.	16cc\L	.	16cc\L	.	.	.	8a\J	8dd\J
.	.	16dd\JJ	.	16dd\JJ	.	.	.	.	.
=2	=2	=2	=2	=2	=2	=2	=2	=2	=2
4c\	.	8ee\L	.	8ee\L	.	.	.	8b\L	8dd\L
.	.	16ee\L	.	16ee\L	.	.	.	16cc\L	16ee\L
.	.	16dd\JJ	.	16dd\JJ	.	.	.	16b\JJ	16dd\JJ
4r	.	16cc\LL	.	16cc\LL	.	.	.	8.a\L	8cc\L
.	.	16b\	.	16b\	.	.	.	.	.
.	.	16a\	.	16a/	.	.	.	.	8b\J
.	.	16g\JJ	.	16g/JJ	.	.	.	16g\Jk	.
8D\L	.	8a/L	.	8a/L	.	.	.	4d/	8a\L
8E\	.	8d/J	.	8d/J	.	.	.	.	16a\L
.	.	.	.	.	.	.	.	.	16a\JJ
8F#\	.	8d/L	.	8d/L	.	.	.	8d/L	8a\L
8D\J	.	16f#/L	.	16a/L	.	.	.	8g/J	8b\J
.	.	16g/JJ	.	16b\JJ	.	.	.	.	.
=3	=3	=3	=3	=3	=3	=3	=3	=3	=3
8A\L	.	8a/L	.	8cc\L	.	.	.	8a\L	8cc\L
8G\	.	8a/J	.	8cc\J	.	.	.	8a\J	8cc\J
8F#\	.	8a/L	.	8cc\L	.	.	.	8b\L	8cc\L
8D\J	.	16g/L	.	16b\L	.	.	.	16g\L	16b\L
.	.	16f#/JJ	.	16a/JJ	.	.	.	16d\JJ	16a/JJ
4G\	.	8g/L	.	8b\L	.	.	.	4g\	4b\
.	.	8a/J	.	8cc\J	.	.	.	.	.
4r	.	8b\L	.	8dd\L	.	.	.	4r	4r
.	.	16cc#X\L	.	16ee\L	.	.	.	.	.
.	.	16dd\JJ	.	16ff#\JJ	.	.	.	.	.
=4	=4	=4	=4	=4	=4	=4	=4	=4	=4
8E/L	.	8ee\L	.	8gg\L	.	.	.	2r	2r
8C/	.	16dd\L	.	16ff#\L	.	.	.	.	.
.	.	16ee\JJ	.	16gg\JJ	.	.	.	.	.
!LO:SIC:s=8AA	!	!	!	!	!	!	!	!	!
8AA#X/	.	8cc#X\L	.	8ee\L	.	.	.	.	.
!LO:SIC:s=8AA	!	!	!	!	!	!	!	!	!
8AA#/J	.	8cc#\J	.	8aa\J	.	.	.	.	.
8D\L	.	8dd\L	.	8ff#\L	.	.	.	8d/L	8d/L
8E\	.	8a/	.	16ee\L	.	.	.	16d/L	16d/L
.	.	.	.	16ff#\JJ	.	.	.	16d/JJ	16d/JJ
8F#\	.	8dd\	.	8dd\L	.	.	.	8d/	8d/
8D\J	.	8ff#\J	.	8aa\J	.	.	.	8r	8r
!	!	!LO:LB:g=original	!	!LO:LB:g=original	!	!	!	!	!
=5	=5	=5	=5	=5	=5	=5	=5	=5	=5
8G\	.	16gg\LL	f	16bb\LL	f	00r	.	0r	0r
.	.	16gg\	.	16bb\	.	.	.	.	.
8r	.	16gg\	.	16bb\	.	.	.	.	.
.	.	16gg\JJ	.	16bb\JJ	.	.	.	.	.
8D\	.	16ff#\LL	.	16aa\LL	.	.	.	.	.
.	.	16ff#\	.	16aa\	.	.	.	.	.
8r	.	16ff#\	.	16aa\	.	.	.	.	.
.	.	16ff#\JJ	.	16aa\JJ	.	.	.	.	.
!LO:TX:a:t=P:problem:mixed beam	!	!	!	!	!	!	!	!	!
8E\L	.	16ee\LL	.	16gg\LL	.	.	.	.	.
.	.	16ee\	.	16gg\	.	.	.	.	.
8AA/	.	16ee\	.	16gg\	.	.	.	.	.
.	.	16ee\JJ	.	16gg\JJ	.	.	.	.	.
!LO:SIC:s=D	!	!	!	!	!	!	!	!	!
8E\	.	8dd\L	.	8ff#\L	.	.	.	.	.
8F#\J	.	16ee\L	.	16gg\L	.	.	.	.	.
.	.	16ff#\JJ	.	16aa\JJ	.	.	.	.	.
!LO:LB:g=original	!	!	!	!	!	!	!	!	!
=6	=6	=6	=6	=6	=6	=6	=6	=6	=6
!	!	!LO:SIC:o:s:=:v:p=Piano:global	!	!LO:SIC:o:s:=:v:p=Piano:global (tu:piano)	!	!	!	!	!
8G\	.	16gg\LL	p	16bb\LL	p	.	.	.	.
.	.	16gg\	.	16bb\	.	.	.	.	.
8r	.	16gg\	.	16bb\	.	.	.	.	.
.	.	16gg\JJ	.	16bb\JJ	.	.	.	.	.
8F#\	.	16ff#\LL	.	16aa\LL	.	.	.	.	.
.	.	16ff#\	.	16aa\	.	.	.	.	.
8r	.	16ff#\	.	16aa\	.	.	.	.	.
.	.	16ff#\JJ	.	16aa\JJ	.	.	.	.	.
!LO:TX:a:t=P:problem:mixed beam	!	!	!	!	!	!	!	!	!
8E\L	.	16ee\LL	.	16gg\LL	.	.	.	.	.
.	.	16ee\	.	16gg\	.	.	.	.	.
8AA/	.	16ee\	.	16gg\	.	.	.	.	.
.	.	16ee\JJ	.	16gg\JJ	.	.	.	.	.
8D\	.	8dd\L	.	8ff#\L	.	.	.	.	.
8E\J	.	8ee\J	.	8gg\J	.	.	.	.	.
=7	=7	=7	=7	=7	=7	=7	=7	=7	=7
8F#\L	.	8ff#\L	f	8aa\L	.	.	.	1r	1r
8E\J	.	16gg\L	.	16bb\L	.	.	.	.	.
.	.	16ff#\JJ	.	16aa\JJ	.	.	.	.	.
8D\L	.	16ee\LL	.	16gg\LL	.	.	.	.	.
.	.	16dd\	.	16ff#\	.	.	.	.	.
16E\L	.	16cc#X\	.	16ee\	.	.	.	.	.
16F#\JJ	.	16dd\JJ	.	16dd\JJ	.	.	.	.	.
!	!	!	!	!LO:TX:a:t=P:problem:mixed beam	!	!	!	!	!
8A\L	.	8cc#X\L	.	8ee\L	.	.	.	.	.
8B\	.	8a\	.	8a/	.	.	.	.	.
8c#X\	.	8a\	.	8a/	.	.	.	.	.
8A\J	.	8ff#\J	.	8aa\J	.	.	.	.	.
=8	=8	=8	=8	=8	=8	=8	=8	=8-	=8
8d\L	.	8dd\L	.	8ff#\L	.	.	.	8d/L	8d/L
8G\J	.	8ee\J	.	16ee\L	.	.	.	16d/L	16d/L
.	.	.	.	16dd\JJ	.	.	.	16d/JJ	16d/JJ
!LO:TX:a:t=P:problem:mixed beam	!	!	!	!	!	!	!	!	!
8A\L	.	8a/L	.	8ee\L	.	.	.	16d/LL	16d/LL
.	.	.	.	.	.	.	.	16d/	16d/
8AA/J	#	16a/L	.	8cc#X\J	.	.	.	16d/	16d/
.	.	16a/JJ	.	.	.	.	.	16d/JJ	16d/JJ
8D/L	.	8f#/L	.	8dd\L	.	.	.	4d/	4d/
8BB/J	.	16g/L	.	16b#X\L	.	.	.	.	.
.	.	16a/JJ	.	16cc#\JJ	.	.	.	.	.
!	!	!LO:LB:g=original	!	!LO:LB:g=original	!	!	!	!	!
8AA/	#	8b\L	.	8dd\L	.	.	.	4r	8r
8r	.	8b\J	.	8dd\J	.	.	.	.	8d/
!	!	!	!	!	!	!	!	!	!LO:LB:g=original
=9	=9	=9	=9	=9	=9	=9	=9	=9	=9
!	!	!LO:SIC:o:s:=:v:p=piano	!	!	!	!	!	!	!
0r	.	(16cc\LL	p	(16ee\LL	p	0r	.	0r	8d/'L
.	.	16b\)	.	16dd\)	.	.	.	.	.
.	.	(16b\	.	(16dd\	.	.	.	.	8d/'
.	.	16a\JJ)	.	16cc\JJ)	.	.	.	.	.
.	.	(16a/LL	.	(16cc\LL	.	.	.	.	8d/'
.	.	16g/)	.	16b\)	.	.	.	.	.
.	.	(16g/	.	(16b\	.	.	.	.	8d/'J
.	.	16a/JJ)	.	16cc\JJ)	.	.	.	.	.
.	.	(16b/LL	.	(16dd\LL	.	.	.	.	8d/'L
.	.	16a/)	.	16cc\)	.	.	.	.	.
.	.	(16a/	.	(16cc\	.	.	.	.	8d/'
.	.	16g/JJ)	.	16b\JJ)	.	.	.	.	.
.	.	16g/LL	.	(16b\LL	.	.	.	.	8d/'
.	.	16f#/	.	16a\)	.	.	.	.	.
.	.	16f#/	.	(16a\	.	.	.	.	8d/'J
.	.	16b/JJ	.	16dd\JJ)	.	.	.	.	.
=10	=10	=10	=10	=10	=10	=10	=10	=10	=10
.	.	(16cc\LL	.	(16ee\LL	.	.	.	.	8d/'L
.	.	16b\)	.	16dd\)	.	.	.	.	.
.	.	(16b\	.	(16dd\	.	.	.	.	8d/'
.	.	16a\JJ)	.	16cc\JJ)	.	.	.	.	.
.	.	(16a/LL	.	(16cc\LL	.	.	.	.	8d/'
.	.	16g/)	.	16b\)	.	.	.	.	.
.	.	(16g/	.	(16b\	.	.	.	.	8d/'J
.	.	16a/JJ)	.	16cc\JJ)	.	.	.	.	.
.	.	(16b/LL	.	(16dd\LL	.	.	.	.	8d/'L
.	.	16a/)	.	16cc\)	.	.	.	.	.
.	.	(16a/	.	(16cc\	.	.	.	.	8d/'
.	.	16g/JJ)	.	16b\JJ)	.	.	.	.	.
.	.	(16g/LL	.	(16b\LL	.	.	.	.	8d/'
.	.	16f#/)	.	16a\)	.	.	.	.	.
.	.	(16f#/	.	(16a\	.	.	.	.	8d/'J
.	.	16g/JJ)	.	16b\JJ)	.	.	.	.	.
=11	=11	=11	=11	=11	=11	=11	=11	=11	=11
2r	.	(16a/LL	.	(16cc\LL	.	1r	.	2r	4d/
.	.	16g/)	.	16b\)	.	.	.	.	.
.	.	(16g/	.	(16b\	.	.	.	.	.
.	.	16a/JJ)	.	16cc\JJ)	.	.	.	.	.
.	.	(16a/LL	.	16cc\LL	.	.	.	.	4r
.	.	16g/)	.	16b\	.	.	.	.	.
.	.	(16g/	.	16b\	.	.	.	.	.
.	.	16a/JJ)	.	16cc\JJ	.	.	.	.	.
8G\L	.	4b\	.	4dd\	.	.	.	4b\	4dd\
8A\	.	.	.	.	.	.	.	.	.
8B\	.	4gg\	.	4gg\	.	.	.	4a\	4cc\
8G\J	.	.	.	.	.	.	.	.	.
!	!	!	!	!	!	!	!	!LO:LB:g=original	!
=12	=12	=12	=12	=12	=12	=12-	=12	=12	=12
!LO:TX:a:t=P:problem:mixed beam	!	!	!	!	!	!	!	!	!
8G\L	.	8b\L	.	8b\L	.	2r	.	4g\	4b\
8B\	.	16a/L	.	16a/L	.	.	.	.	.
.	.	16g/JJ	.	16g/JJ	.	.	.	.	.
8d\	.	8a/L	.	8a/L	.	.	.	16d/LL	16a/LL
.	.	.	.	.	.	.	.	16B/	16cc\
8D/J	.	8f#/J	.	8f#/J	.	.	.	16G/	16b\
.	.	.	.	.	.	.	.	16d/JJ	16a/JJ
8G\L	.	4g/	.	4g/	.	4r	.	16d/LL	16g\LL
.	.	.	.	.	.	.	.	16B/	16d\JJ
8A\	.	.	.	.	.	.	.	16B/	16d/LL
.	.	.	.	.	.	.	.	16G/JJ	16d/JJ
8B\	.	4r	.	4r	.	8r	.	8G/	8B/
8G\J	.	.	.	.	.	8gg\	Gau-	8r	8r
!LO:LB:g=original	!	!LO:LB:g=original	!	!LO:LB:g=original	!	!	!	!	!
=13	=13	=13	=13	=13	=13	=13	=13	=13	=13
4B\	.	1r	.	1r	.	12dd\L	-de-	1r	1r
.	.	.	.	.	.	12ee\	.	.	.
.	.	.	.	.	.	12dd\J	.	.	.
8r	.	.	.	.	.	8dd\	-te	.	.
8B\	.	.	.	.	.	8gg\	ri-	.	.
4A\	.	.	.	.	.	12b\L	-de-	.	.
.	.	.	.	.	.	12cc\	.	.	.
.	.	.	.	.	.	12b\J	.	.	.
8r	.	.	.	.	.	8b\	-te	.	.
8A\	.	.	.	.	.	8cc\	gau-	.	.
=14	=14	=14-	=14	=14-	=14	=14	=14	=14-	=14-
8B\L	.	2r	.	2r	.	4dd\	-de-	2r	2r
8A\	.	.	.	.	.	.	.	.	.
8G\	.	.	.	.	.	(16ee\LL	-te	.	.
.	.	.	.	.	.	16dd\JJ)	.	.	.
8B\J	.	.	.	.	.	(16cc\LL	m(o)r-	.	.
.	.	.	.	.	.	16b\JJ)	.	.	.
8d\L	.	4r	.	4r	.	4a\	-ta-	4r	4r
8D\	.	.	.	.	.	.	.	.	.
8F#\	.	8r	.	8r	.	8d/	-les	8r	8r
8G\J	.	8dd\	.	8gg\	.	8r	.	8b\	8dd\
=15	=15	=15	=15	=15	=15	=15	=15	=15	=15
!	!	!LO:SIC:o:s:=:v:triole oznaczona adnotacją:global	!	!LO:SIC:o:s:=:v:triole oznaczona adnotacją:global	!	!	!	!	!
4G\	.	12b\L	.	12dd\L	f	00r	.	8g\	8b\
.	.	12cc\	.	12ee\	.	.	.	.	.
.	.	.	.	.	.	.	.	8r	4r
.	.	12b\J	.	12dd\J	.	.	.	.	.
8r	.	8b\L	.	8dd\L	.	.	.	8r	.
8B\	.	8dd\J	.	8gg\J	.	.	.	8b\	8dd\
!	!	!LO:TUP:b	!	!	!	!	!	!	!
4G\	.	12g/L	.	12b\L	.	.	.	8g\	8b\
.	.	12a/	.	12cc\	.	.	.	.	.
.	.	.	.	.	.	.	.	8r	4r
.	.	12g/J	.	12b\J	.	.	.	.	.
8r	.	8g/L	.	8b\L	.	.	.	8r	.
8A\	.	8a/J	.	8cc\J	.	.	.	8a\	8cc\
!	!	!	!	!	!	!	!	!	!LO:LB:g=original
=16	=16	=16	=16	=16	=16	=16	=16	=16	=16
8B\L	.	4b\	.	4dd\	.	.	.	4b\	4dd\
8A\	.	.	.	.	.	.	.	.	.
8G\	.	16cc\LL	.	16ee\LL	.	.	.	8.a/L	8.cc\L
.	.	16b\	.	16dd\	.	.	.	.	.
8B\J	.	16a\	.	16cc\	.	.	.	.	.
.	.	16g\JJ	.	16b\JJ	.	.	.	16g/Jk	16b\Jk
!LO:TX:a:t=P:problem:mixed beam	!	!	!	!	!	!	!	!	!
8d\L	.	8a/L	.	8a/L	.	.	.	4d/	4a\
8D/J	.	8d/J	.	8f#/	.	.	.	.	.
8D/	.	8d/L	.	8f#/	.	.	.	4r	8r
8r	.	8b/J	.	8dd\J	.	.	.	.	8d/
=17	=17	=17	=17	=17	=17	=17	=17	=17	=17
!	!	!LO:SIC:o:s:=:v:p=piano	!	!	!	!	!	!	!
0r	.	(16cc\LL	p	(16ee\LL	p	.	.	0r	8d/L
.	.	16b\)	.	16dd\)	.	.	.	.	.
.	.	(16b\	.	(16dd\	.	.	.	.	8d/
.	.	16a\JJ)	.	16cc\JJ)	.	.	.	.	.
.	.	(16a/LL	.	(16cc\LL	.	.	.	.	8d/
.	.	16g/)	.	16b\)	.	.	.	.	.
.	.	(16g/	.	(16b\	.	.	.	.	8d/J
.	.	16a/JJ)	.	16cc\JJ)	.	.	.	.	.
.	.	(16b/LL	.	(16dd\LL	.	.	.	.	8d/L
.	.	16a/)	.	16cc\)	.	.	.	.	.
.	.	(16a/	.	(16cc\	.	.	.	.	8d/
.	.	16g/JJ)	.	16b\JJ)	.	.	.	.	.
.	.	(16g/LL	.	(16b\LL	.	.	.	.	8d/
.	.	16f#/)	.	16a\)	.	.	.	.	.
.	.	(16f#/	.	(16a\	.	.	.	.	8d/J
.	.	16b/JJ)	.	16dd\JJ)	.	.	.	.	.
=18	=18	=18	=18	=18	=18	=18	=18	=18	=18
.	.	(16cc\LL	.	(16ee\LL	.	.	.	.	8d/L
.	.	16b\)	.	16dd\)	.	.	.	.	.
.	.	(16b\	.	(16dd\	.	.	.	.	8d/
.	.	16a\JJ)	.	16cc\JJ)	.	.	.	.	.
!	!	!LO:LB:g=original	!	!	!	!	!	!	!
.	.	(16a/LL	.	(16cc\LL	.	.	.	.	8d/
.	.	16g/)	.	16b\)	.	.	.	.	.
.	.	(16g/	.	(16b\	.	.	.	.	8d/J
.	.	16a/JJ)	.	16cc\JJ)	.	.	.	.	.
!	!	!	!	!LO:LB:g=original	!	!	!	!	!
.	.	(16b/LL	.	(16dd\LL	.	.	.	.	8d/L
.	.	16a/)	.	16cc\)	.	.	.	.	.
.	.	(16a/	.	(16cc\	.	.	.	.	8d/
.	.	16g/JJ)	.	16b\JJ)	.	.	.	.	.
.	.	(16g/LL	.	(16b\LL	.	.	.	.	8d/
.	.	16f#/)	.	16a\)	.	.	.	.	.
.	.	(16f#/	.	(16a\	.	.	.	.	8d/J
.	.	16g/JJ)	.	16b\JJ)	.	.	.	.	.
=19	=19	=19	=19	=19	=19	=19	=19	=19	=19
2r	.	(16a/LL	.	(16cc\LL	.	1r	.	2r	4d/
.	.	16g/)	.	16b\)	.	.	.	.	.
.	.	(16g/	.	(16b\	.	.	.	.	.
.	.	16a/JJ)	.	16cc\JJ)	.	.	.	.	.
.	.	(16a/LL	.	(16cc\LL	.	.	.	.	4r
.	.	16g/)	.	16b\)	.	.	.	.	.
.	.	(16g/	.	(16b\	.	.	.	.	.
.	.	16a/JJ)	.	16cc\JJ)	.	.	.	.	.
8G\L	.	4b\	.	4dd\	.	.	.	4b\	4dd\
8A\	.	.	.	.	.	.	.	.	.
8B\	.	4gg\	.	4gg\	.	.	.	4a\	4cc\
8G\J	.	.	.	.	.	.	.	.	.
!	!	!	!	!	!	!LO:LB:g=original	!	!	!
=20	=20	=20	=20	=20	=20	=20	=20	=20	=20
!LO:TX:a:t=P:problem:mixed beam	!	!	!	!	!	!	!	!	!
8G\L	.	8b/L	.	8b/L	.	2r	.	4g\	4b\
8B\	.	16a/L	.	16a/L	.	.	.	.	.
.	.	16g/JJ	.	16g/JJ	.	.	.	.	.
8d\	.	8a/L	.	8a/L	.	.	.	16d/LL	16a\LL
.	.	.	.	.	.	.	.	16B/	16cc\
8D/J	.	8f#/J	.	8f#/J	.	.	.	16G/	16b\
.	.	.	.	.	.	.	.	16d/JJ	16a\JJ
!	!	!	!	!	!	!	!	!	!LO:TX:a:t=P:problem:mixed beam
8G\L	.	4g/	.	4g/	.	4r	.	16B/LL	16g\LL
.	.	.	.	.	.	.	.	16B/	16d/
8A\	.	.	.	.	.	.	.	16B/	16d/
.	.	.	.	.	.	.	.	16B/JJ	16d/JJ
8B\	.	4r	.	4r	.	8r	.	8G/	8B/
8G\J	.	.	.	.	.	8gg\	Gau-	8r	8r
!LO:LB:g=original	!	!	!	!	!	!	!	!	!
=21	=21	=21	=21	=21	=21	=21	=21	=21	=21
4B\	.	1r	.	1r	.	12dd\L	-de-	1r	2r
.	.	.	.	.	.	12ee\	.	.	.
.	.	.	.	.	.	12dd\J	.	.	.
8r	.	.	.	.	.	8dd\	-te	.	.
8A\	.	.	.	.	.	8gg\	Ri-	.	.
4G\	.	.	.	.	.	12b\L	-de-	.	4r
.	.	.	.	.	.	12cc\	.	.	.
.	.	.	.	.	.	12b\J	.	.	.
8r	.	.	.	.	.	8b\	-te	.	8r
8A\	.	.	.	.	.	8cc\	gau-	.	16b\LL
.	.	.	.	.	.	.	.	.	16cc\JJ
!	!	!	!	!	!	!	!	!	!LO:LB:g=original
=22	=22	=22-	=22	=22	=22	=22	=22	=22-	=22
!	!	!	!	!	!	!	!	!	!LO:SIC:o:s:=:v:triole z adnotacją"global
8B\L	.	2r	.	2r	.	4dd\	-de-	2r	12dd\L
.	.	.	.	.	.	.	.	.	12ee\
8A\	.	.	.	.	.	.	.	.	.
.	.	.	.	.	.	.	.	.	12dd\J
8G\	.	.	.	.	.	(16ee\LL	-te	.	12dd\L
.	.	.	.	.	.	16dd\JJ)	.	.	.
.	.	.	.	.	.	.	.	.	12cc\
8B\J	.	.	.	.	.	16cc\LL	mor-	.	.
.	.	.	.	.	.	.	.	.	12b\J
.	.	.	.	.	.	16b\JJ	.	.	.
!LO:TX:a:t=P:problem:mixed beam	!	!	!	!	!	!	!	!	!
8d\L	.	4r	.	4r	.	4a\	-ta-	4r	4a\
8D/	.	.	.	.	.	.	.	.	.
8F#/	.	8r	.	8r	.	8d/	-les	8r	4r
8G/J	.	8dd\	.	8gg\	.	8r	.	16g\LL	.
.	.	.	.	.	.	.	.	16a\JJ	.
!	!	!	!	!	!	!	!	!LO:LB:g=original	!
=23	=23	=23	=23	=23	=23	=23	=23	=23	=23
8G\L	.	12b\L	.	12dd\L	.	2r	.	8b\L	0r
.	.	12cc\	.	12ee\	.	.	.	.	.
8A\	.	.	.	.	.	.	.	16cc\L	.
.	.	12b\J	.	12dd\J	.	.	.	.	.
.	.	.	.	.	.	.	.	16b\JJ	.
!	!	!LO:TUP:b	!	!	!	!	!	!	!
8B\	.	12b/L	.	12dd\L	.	.	.	8b\L	.
.	.	12a/	.	12cc\	.	.	.	.	.
8G\J	.	.	.	.	.	.	.	16a\L	.
.	.	12g/J	.	12b\J	.	.	.	.	.
.	.	.	.	.	.	.	.	16g\JJ	.
!LO:TX:a:t=P:problem:mixed beam	!	!	!	!	!	!	!	!	!
8d\L	.	8a/L	.	8a/L	.	4r	.	4d/	.
8D/	.	8d/J	.	8d/	.	.	.	.	.
8F#/	.	8d/	.	8d/J	.	8r	.	4r	.
8D/J	.	8r	.	8r	.	8gg\	Gau-	.	.
=24	=24	=24	=24	=24	=24	=24	=24	=24	=24
4BB/	.	00r	.	0r	.	12dd\L	-de-	00r	.
.	.	.	.	.	.	12ee\	.	.	.
.	.	.	.	.	.	12dd\J	.	.	.
8r	.	.	.	.	.	8cc\	-te	.	.
8C/	.	.	.	.	.	8b\	mor-	.	.
!	!	!	!	!	!	!LO:LB:g=original	!	!	!
8D\L	.	.	.	.	.	4a\	-ta-	.	.
8E\	.	.	.	.	.	.	.	.	.
8F#\	.	.	.	.	.	8d/	-les	.	.
8D\J	.	.	.	.	.	8d/	mor-	.	.
=25	=25	=25	=25	=25	=25	=25	=25	=25	=25
4G\	.	.	.	.	.	16g\LL	-ta-	.	1r
.	.	.	.	.	.	16f#/	.	.	.
.	.	.	.	.	.	16g\	.	.	.
.	.	.	.	.	.	16a\JJ	.	.	.
8r	.	.	.	.	.	16g\LL	.	.	.
.	.	.	.	.	.	16a\	.	.	.
8G\	.	.	.	.	.	16f#/	.	.	.
.	.	.	.	.	.	16g\JJ	.	.	.
4F#\	.	.	.	.	.	16a\LL	.	.	.
.	.	.	.	.	.	16g\	.	.	.
.	.	.	.	.	.	16a\	.	.	.
.	.	.	.	.	.	16b\JJ	.	.	.
8r	.	.	.	.	.	16a\LL	.	.	.
.	.	.	.	.	.	16b\	.	.	.
8F#\	.	.	.	.	.	16g\	.	.	.
.	.	.	.	.	.	16a\JJ	.	.	.
=26	=26	=26	=26	=26	=26	=26	=26	=26	=26-
4G\	.	.	.	1r	.	16b\LL	.	.	2r
.	.	.	.	.	.	16a\	.	.	.
.	.	.	.	.	.	16b\	.	.	.
.	.	.	.	.	.	16cc\JJ	.	.	.
8r	.	.	.	.	.	8b\L	.	.	.
8E\	.	.	.	.	.	16a\L	.	.	.
.	.	.	.	.	.	16g\JJ	.	.	.
8D\L	.	.	.	.	.	4a\	.	.	4r
8E\	.	.	.	.	.	.	.	.	.
8F#\	.	.	.	.	.	8d/	-les	.	8r
8D\J	.	.	.	.	.	8a\	ri-	.	8d/
!LO:LB:g=original	!	!	!	!	!	!	!	!	!
=27	=27	=27	=27	=27	=27	=27	=27	=27	=27
4G\	.	.	.	2r	.	4b\	-de-	.	8d/'L
.	.	.	.	.	.	.	.	.	8d/'
8r	.	.	.	.	.	(16cc\LL	-re	.	8d/'
.	.	.	.	.	.	16b\JJ)	.	.	.
8E\	.	.	.	.	.	16a\LL	mor-	.	8d/'J
.	.	.	.	.	.	16g\JJ	.	.	.
8D\L	.	.	.	4r	.	4a\	-ta-	.	8d/'L
8E\	.	.	.	.	.	.	.	.	8d/'
8F#\	.	.	.	8r	.	8d/	-les	.	8d/'
8D\J	.	.	.	8gg\	.	8b\	gau-	.	8d/'J
!	!	!	!	!LO:LB:g=original	!	!LO:LB:g=original	!	!	!
=28	=28	=28	=28	=28	=28	=28	=28	=28	=28
!	!	!	!	!	!	!	!	!LO:SIC:o:s:=:v:brak tych taktów	!
0r	.	1r	.	(8aa\L	.	(8cc\L	-de-	1ryy	8d/'L
.	.	.	.	8gg\)	.	8b\J)	.	.	8d/'
.	.	.	.	(8ff#\	.	8a\	-te	.	8d/'
.	.	.	.	8gg\J)	.	8b\	ri-	.	8d/'J
.	.	.	.	(8aa\L	.	(8cc\L	-de-	.	8d/'L
.	.	.	.	8gg\)	.	8b\J)	.	.	8d/'
.	.	.	.	(8ff#\	.	8a\	-te	.	8d/'
.	.	.	.	8gg\J)	.	8b\	gau-	.	8d/'J
=29	=29	=29-	=29	=29	=29	=29	=29	=29	=29
.	.	2r	.	(8aa\L	.	(8cc\L	-de-	1ryy	8d/'L
.	.	.	.	8gg\)	.	8b\J)	.	.	8d/'
.	.	.	.	(8ff#\	.	8a\	-te	.	8d/'
.	.	.	.	8gg\J)	.	8b\	ri-	.	8d/'J
.	.	4r	.	(8aa\L	.	8cc\L	-de-	.	8d/L
.	.	.	.	8gg\)	.	8b\J	.	.	8d/
.	.	8r	.	(8ff#\	.	8a\	-te	.	8d/
.	.	8b\	.	8dd\J)	.	8dd\	gau-	.	8d/J
=30	=30	=30	=30	=30	=30	=30	=30	=30	=30
*	*	*	*	*	*	*2\right	*	*	*
!	!	!	!	!	!	!	!	!	!LO:SIC:o:s:=:v:brak tego taktu
1r	.	(16cc\LL	p	16ee\LL	.	2dd\	-de-	1ryy	1ryy
.	.	16b\)	.	16dd\	.	.	.	.	.
.	.	(16b\	.	16dd\	.	.	.	.	.
.	.	16a\JJ)	.	16cc\JJ	.	.	.	.	.
.	.	(16a/LL	.	16cc\LL	.	.	.	.	.
.	.	16g/)	.	16b\	.	.	.	.	.
.	.	(16g/	.	16b\	.	.	.	.	.
.	.	16a/JJ)	.	16dd\JJ	.	.	.	.	.
.	.	(16cc\LL	.	16ee\LL	.	4.dd\	-te	.	.
.	.	16b\)	.	16dd\	.	.	.	.	.
.	.	(16b\	.	16dd\	.	.	.	.	.
.	.	16a\JJ)	.	16cc\JJ	.	.	.	.	.
.	.	16a/LL	.	16cc\LL	.	.	.	.	.
.	.	16g/J	.	16b\	.	.	.	.	.
.	.	8g/J	.	16b\JJ	.	8cc\	mor-	.	.
.	.	.	.	16r	.	.	.	.	.
=31-	=31	=31	=31	=31	=31	=31	=31	=31	=31
!LO:TX:a:t=P:problem:mixed beam	!	!	!	!	!	!	!	!	!
8G\L	.	1r	.	2r	.	8b\L	-ta-	1ryy	2r
8B\	.	.	.	.	.	16a\L	.	.	.
.	.	.	.	.	.	16g\JJ	.	.	.
8d\	.	.	.	.	.	4f#/	.	.	.
8D/J	.	.	.	.	.	.	.	.	.
4G\	.	.	.	8g/L	.	4g/	-les	.	8g\L
.	.	.	.	16g/L	.	.	.	.	16g\L
.	.	.	.	16a/JJ	.	.	.	.	16a/JJ
4r	.	.	.	16g/LL	.	4r	.	.	16g\LL
.	.	.	.	16a/	.	.	.	.	16a\
.	.	.	.	16g/	.	.	.	.	16g\
.	.	.	.	16a/JJ	.	.	.	.	16a\JJ
!	!	!	!	!	!	!	!	!	!LO:LB:g=original
=32	=32	=32-	=32	=32	=32	=32	=32	=32	=32
4G\	.	8g/L	.	8b\L	.	00r	.	8g\L	8b\L
.	.	16g/L	.	16b\L	.	.	.	16a\L	16b\L
.	.	16a/JJ	.	16cc\JJ	.	.	.	16a\JJ	16cc\JJ
4r	.	16g/LL	.	16b\LL	.	.	.	16g\LL	16b\LL
.	.	16a/	.	16cc\	.	.	.	16a\	16cc\
.	.	16g/	.	16b\	.	.	.	16g\	16b\
.	.	16a/JJ	.	16cc\JJ	.	.	.	16a\JJ	16cc\JJ
8G\L	.	16b\LL	.	8dd\L	.	.	.	8b\L	8dd\L
.	.	16cc\J	.	.	.	.	.	.	.
8A\	.	8b\J	.	16ee\L	.	.	.	16cc\L	16ee\L
.	.	.	.	16dd\JJ	.	.	.	16b\JJ	16dd\JJ
!	!	!	!	!LO:LB:g=original	!	!	!	!	!
8B\	.	16a/LL	.	16cc\LL	.	.	.	8a\L	8cc\L
.	.	16g/	.	16b\	.	.	.	.	.
8G\J	.	16g/	.	16a\	.	.	.	8g\J	8b\J
.	.	16g/JJ	.	16g\JJ	.	.	.	.	.
=33	=33	=33	=33	=33	=33	=33	=33	=33	=33
8D\L	.	8a/L	.	8a/L	.	.	.	4d/	4a\
8E\	.	8d/	.	8d/J	.	.	.	.	.
!	!	!	!	!LO:TX:a:t=P:problem:mixed beam	!	!	!	!	!
8F#\	.	8d/	.	8d/L	.	.	.	4r	8r
8D\J	.	8b\J	.	8dd\J	.	.	.	.	8d/
2r	.	(16cc\LL	.	(16ee\LL	.	.	.	2r	8d/'L
.	.	16b\)	.	16dd\)	.	.	.	.	.
.	.	(16b\	.	(16dd\	.	.	.	.	8d/'
.	.	16a\JJ)	.	16cc\JJ)	.	.	.	.	.
.	.	(16a/LL	.	(16cc\LL	.	.	.	.	8d/'
.	.	16g/)	.	16b\)	.	.	.	.	.
.	.	(16g/	.	(16b\	.	.	.	.	8d/'J
.	.	16a/JJ)	.	16cc\JJ)	.	.	.	.	.
=34	=34	=34	=34	=34	=34	=34	=34	=34	=34
0r	.	(16b/LL	.	(16dd\LL	.	.	.	0r	8d/'L
.	.	16a/)	.	16cc\)	.	.	.	.	.
.	.	(16a/	.	(16cc\	.	.	.	.	8d/'
.	.	16g/JJ)	.	16b\JJ)	.	.	.	.	.
!	!	!LO:LB:g=original	!	!	!	!	!	!	!
.	.	(16g/LL	.	(16b\LL	.	.	.	.	8d/'
.	.	16f#/)	.	16a\)	.	.	.	.	.
.	.	(16f#/	.	(16a\	.	.	.	.	8d/'J
.	.	16b/JJ)	.	16dd\JJ)	.	.	.	.	.
.	.	(16cc\LL	.	(16ee\LL	.	.	.	.	8d/'L
.	.	16b\)	.	16dd\)	.	.	.	.	.
.	.	(16b\	.	(16dd\	.	.	.	.	8d/'
.	.	16a\JJ)	.	16cc\JJ)	.	.	.	.	.
.	.	(16a/LL	.	(16cc\LL	.	.	.	.	8d/'
.	.	16g/)	.	16b\)	.	.	.	.	.
.	.	(16g/	.	(16b\	.	.	.	.	8d/'J
.	.	16a/JJ)	.	16cc\JJ)	.	.	.	.	.
=35	=35	=35	=35	=35	=35	=35	=35	=35	=35
.	.	(16b/LL	.	(16dd\LL	.	.	.	.	8d/L
.	.	16a/)	.	16cc\)	.	.	.	.	.
.	.	(16a/	.	(16cc\	.	.	.	.	8d/
.	.	16g/JJ)	.	16b\JJ)	.	.	.	.	.
.	.	(16g/LL	.	(16b\LL	.	.	.	.	8d/
.	.	16f#/)	.	16a\)	.	.	.	.	.
.	.	(16f#/	.	(16a\	.	.	.	.	8d/J
.	.	16g/JJ)	.	16b\JJ)	.	.	.	.	.
.	.	16a/LL	.	(16cc\LL	.	.	.	.	4d/
.	.	16g/	.	16b\)	.	.	.	.	.
.	.	16g/	.	(16b\	.	.	.	.	.
.	.	16a/JJ	.	16cc\JJ)	.	.	.	.	.
.	.	16a/LL	.	(16cc\LL	.	.	.	.	4r
.	.	16g/	.	16b\)	.	.	.	.	.
.	.	16g/	.	(16b\	.	.	.	.	.
.	.	16a/JJ	.	16cc\JJ)	.	.	.	.	.
=36-	=36	=36	=36	=36	=36	=36	=36	=36	=36
8G\L	.	4b\	.	4dd\	.	1r	.	4b\	4dd\
8A\	.	.	.	.	.	.	.	.	.
8B\	.	4gg\	.	4gg\	.	.	.	4a\	4cc\
8G\J	.	.	.	.	.	.	.	.	.
!	!	!LO:LB:g=original	!	!	!	!	!	!	!
!LO:TX:a:t=P:problem:mixed beam	!	!	!	!	!	!	!	!	!
8c\L	.	8b/L	.	8b\L	.	.	.	4g\	4b\
8A\	.	16a/L	.	16a/L	.	.	.	.	.
.	.	16g/JJ	.	16g/JJ	.	.	.	.	.
!LO:SIC:o:s=:v:d (wysokość poprawiana)	!	!	!	!	!	!	!	!	!
8d\	.	8a/L	.	8a/L	.	.	.	16d/LL	16a\LL
.	.	.	.	.	.	.	.	16B/JJ	16cc\
8D/J	.	8f#/J	.	8f#/J	.	.	.	16G/LL	16b\
.	.	.	.	.	.	.	.	16d/JJ	16a\JJ
!	!	!	!	!	!	!LO:LB:g=original	!	!	!
=37	=37	=37	=37	=37	=37	=37	=37	=37	=37
8G\L	.	4g/	.	4g/	.	4r	.	4B/	4g\
8A\	.	.	.	.	.	.	.	.	.
8B\	.	4r	.	4r	.	8r	.	4r	4r
8A\J	.	.	.	.	.	8dd\	a-	.	.
!LO:LB:g=original	!	!	!	!	!	!	!	!	!
8G\L	.	2r	.	2r	.	4b\	-mae-	2r	2r
8A\	.	.	.	.	.	.	.	.	.
8B\	.	.	.	.	.	8cc\	-na	.	.
8G\J	.	.	.	.	.	8b\	Se-	.	.
=38	=38	=38	=38	=38	=38	=38	=38	=38	=38
8D\L	.	0r	.	0r	.	4a\	-re-	00r	00r
8E\	.	.	.	.	.	.	.	.	.
8F#\	.	.	.	.	.	8dd\	-na	.	.
8D\J	.	.	.	.	.	8cc\	So-	.	.
8G\L	.	.	.	.	.	4b\	-la-	.	.
8A\	.	.	.	.	.	.	.	.	.
8B\	.	.	.	.	.	8cc\	-mi-	.	.
8G\J	.	.	.	.	.	8b\	-ne	.	.
=39	=39	=39	=39	=39	=39	=39	=39	=39	=39
!	!	!	!	!	!	!LO:SIC:l:s=ple	!	!	!
8D\L	.	.	.	.	.	4a\	plae-	.	.
8E\	.	.	.	.	.	.	.	.	.
8F#\	.	.	.	.	.	8dd\	-na	.	.
8D\J	.	.	.	.	.	8cc\	So-	.	.
8G\L	.	.	.	.	.	4b\	-la-	.	.
8A\	.	.	.	.	.	.	.	.	.
8c\	.	.	.	.	.	8ee\	-mi-	.	.
8B\J	.	.	.	.	.	8dd\	-ne	.	.
=40	=40	=40-	=40	=40-	=40	=40	=40	=40	=40
8A\L	.	1r	.	1r	.	4cc#X\	ple-	.	.
8c#X\	.	.	.	.	.	.	.	.	.
8d\	.	.	.	.	.	8ff#\	-na	.	.
8A\J	.	.	.	.	.	8ee\	re-	.	.
!LO:TX:a:t=P:problem:mixed beam	!	!	!	!	!	!	!	!	!
8B\L	.	.	.	.	.	8dd\	-ful-	.	.
8G\	.	.	.	.	.	16ee\LL	-get	.	.
.	.	.	.	.	.	16b\JJ	.	.	.
8A\	.	.	.	.	.	4cc#X\	di-	.	.
8AA/J	.	.	.	.	.	.	.	.	.
!	!	!	!	!	!	!LO:LB:g=original	!	!	!
=41	=41	=41-	=41	=41-	=41	=41	=41	=41	=41
8D\L	.	8dd\L	.	8dd\L	.	4dd\	-es	.	.
8E\	.	8a\J	.	8a\J	.	.	.	.	.
8F#\	.	8a/L	.	8a/L	.	4r	.	.	.
8C#X/J	.	16b\L	.	16b\L	.	.	.	.	.
.	.	16cc#X\JJ	.	16cc#X\JJ	.	.	.	.	.
4D\	.	16dd\LL	.	16dd\LL	.	2r	.	.	.
.	.	16a/	.	16a/	.	.	.	.	.
.	.	16b\	.	16b\	.	.	.	.	.
!	!	!LO:TX:a:t=P:problem:# above	!	!	!	!	!	!	!
.	.	16cc#X\JJ	.	16cc#X\JJ	.	.	.	.	.
!	!	!LO:LB:g=original	!	!	!	!	!	!	!
4r	.	16dd\LL	.	16dd\LL	.	.	.	.	.
.	.	16ee\	.	16ee\	.	.	.	.	.
.	.	16dd\	.	16ff#\	.	.	.	.	.
.	.	16ee\JJ	.	16gg\JJ	.	.	.	.	.
=42	=42	=42	=42	=42	=42	=42	=42	=42	=42
8D\L	.	8ff#\L	.	8aa\L	.	00r	.	00r	00r
8E\	.	16ee\L	.	16gg\L	.	.	.	.	.
.	.	16dd\JJ	.	16ff#\JJ	.	.	.	.	.
8F#\	.	16gg\LL	.	16bb\LL	.	.	.	.	.
.	.	16ff#\	.	16aa\	.	.	.	.	.
8D\J	.	16ee\	.	16gg\	.	.	.	.	.
.	.	16dd\JJ	.	16ff#\JJ	.	.	.	.	.
!LO:TX:a:t=P:problem:mixed beam	!	!	!	!	!	!	!	!	!
8A\L	.	8cc#X\L	.	8ee\L	.	.	.	.	.
8AA/J	.	8ee\J	.	8a\	.	.	.	.	.
!	!	!LO:TX:a:t=P:problem:mixed beam	!	!	!	!	!	!	!
8C#X/L	.	8a/L	.	8a/	.	.	.	.	.
8AA/J	.	8ff#\J	.	8aa\J	.	.	.	.	.
!LO:LB:g=original	!	!	!	!	!	!	!	!	!
=43	=43	=43	=43	=43	=43	=43	=43	=43	=43
!LO:SIC:o:s:=:v:nuta nieczytelna	!	!	!	!	!	!	!	!	!
4ryy	.	16gg\LL	f	16bb\LL	f	.	.	.	.
.	.	16gg\	.	16bb\	.	.	.	.	.
.	.	16gg\	.	16bb\	.	.	.	.	.
.	.	16gg\JJ	.	16bb\JJ	.	.	.	.	.
8D\	.	16ff#\LL	.	16aa\LL	.	.	.	.	.
.	.	16ff#\	.	16aa\	.	.	.	.	.
8r	.	16ff#\	.	16aa\	.	.	.	.	.
.	.	16ff#\JJ	.	16aa\JJ	.	.	.	.	.
!LO:TX:a:t=P:problem:mixed beam	!	!	!	!	!	!	!	!	!
8E\L	.	16ee\LL	.	16gg\LL	.	.	.	.	.
.	.	16ee\	.	16gg\	.	.	.	.	.
8AA/	.	16ee\	.	16gg\	.	.	.	.	.
.	.	16ee\JJ	.	16gg\JJ	.	.	.	.	.
8D/	.	8dd\L	.	8ff#\L	.	.	.	.	.
8F#/J	.	16ee\L	.	16gg\L	.	.	.	.	.
.	.	16ff#\JJ	.	16aa\JJ	.	.	.	.	.
!	!	!	!	!LO:LB:g=original	!	!	!	!	!
=44	=44	=44	=44	=44	=44	=44	=44	=44	=44
!	!	!	!	!LO:SIC:o:s:=:v:p=piano	!	!	!	!	!
8G\	.	16gg\LL	p	16bb\LL	p	.	.	.	.
.	.	16gg\	.	16bb\	.	.	.	.	.
8r	.	16gg\	.	16bb\	.	.	.	.	.
.	.	16gg\JJ	.	16bb\JJ	.	.	.	.	.
8D\	.	16ff#\LL	.	16aa\LL	.	.	.	.	.
.	.	16ff#\	.	16aa\	.	.	.	.	.
8r	.	16ff#\	.	16aa\	.	.	.	.	.
.	.	16ff#\JJ	.	16aa\JJ	.	.	.	.	.
!LO:TX:a:t=P:problem:mixed beam	!	!	!	!	!	!	!	!	!
8E\L	.	16ee\LL	.	16gg\LL	.	.	.	.	.
.	.	16ee\	.	16gg\	.	.	.	.	.
8AA/	.	16ee\	.	16gg\	.	.	.	.	.
.	.	16ee\JJ	.	16gg\JJ	.	.	.	.	.
8D/	.	8dd\L	.	8ff#\L	.	.	.	.	.
8F#/J	.	8ee\J	.	8gg\J	.	.	.	.	.
!	!	!LO:LB:g=original	!	!	!	!	!	!	!
=45	=45	=45	=45	=45	=45	=45	=45	=45	=45
8F#\L	.	8ff#\L	.	8aa\L	.	.	.	.	.
8E\	.	16ee\L	.	16gg\L	.	.	.	.	.
.	.	16dd\JJ	.	16ff#\JJ	.	.	.	.	.
8D\	.	16cc#X\LL	.	16ee\LL	.	.	.	.	.
.	.	16dd\	.	16dd\	.	.	.	.	.
8F#\J	.	16cc#\	.	16cc#X\	.	.	.	.	.
.	.	16dd\JJ	.	16dd\JJ	.	.	.	.	.
!	!	!	!	!LO:SIC:o:s:=:v:nieczytelna adnotacja	!	!	!	!	!
8A\L	.	8ee\L	.	8ee\L	.	.	.	.	.
8B\	.	8a\	.	8a\	.	.	.	.	.
8c#X\	.	8a\	.	8a\	.	.	.	.	.
8A\J	.	8gg\J	.	8gg\J	.	.	.	.	.
!	!	!	!	!	!	!	!	!	!LO:TX:b:t=Verte
!	!	!	!	!	!	!	!	!	!LO:PB:g=original
=46	=46	=46	=46	=46	=46	=46	=46	=46	=46
!LO:TX:a:t=P:problem:mixed beam	!	!	!	!	!	!	!	!	!
8d\L	.	8dd\L	.	8ff#\L	.	2r	.	8d/L	8d/L
8G\	.	8a\	.	16ee\L	.	.	.	16d/L	16d/L
.	.	.	.	16dd\JJ	.	.	.	16d/JJ	16d/JJ
8A\	.	8a\	.	8a\L	.	.	.	16d/LL	16d/LL
.	.	.	.	.	.	.	.	16d/	16d/
8AA/J	.	8cc#X\J	.	8cc#X\J	.	.	.	16d/	16d/
.	.	.	.	.	.	.	.	16d/JJ	16d/JJ
8D\L	.	8dd\L	.	8dd\L	.	4r	.	4d/	4d/
8E\	.	8a\J	.	8a\J	.	.	.	.	.
8F#\	.	8f#/	.	8d/	.	8r	.	4r	4r
8D\J	.	8r	.	8r	.	8a\	a-	.	.
=47	=47	=47	=47	=47	=47	=47	=47	=47	=47
8D\L	.	00r	.	1r	.	4dd\	-mae-	00r	1r
8D\	.	.	.	.	.	.	.	.	.
8C#X/	.	.	.	.	.	8ee\	-na	.	.
8AA/J	.	.	.	.	.	8gg\	Se-	.	.
8D\L	.	.	.	.	.	4ff#\	-re-	.	.
8E\	.	.	.	.	.	.	.	.	.
8F#\	.	.	.	.	.	8ee\	-na	.	.
8E\J	.	.	.	.	.	8a\	So-	.	.
!LO:LB:g=original	!	!	!	!	!	!	!	!	!
=48	=48	=48	=48	=48-	=48	=48	=48	=48	=48-
8D\L	.	.	.	2r	.	4dd\	-la-	.	2r
8D\	.	.	.	.	.	.	.	.	.
8C#X/	.	.	.	.	.	8ee\	-mi-	.	.
8AA/J	.	.	.	.	.	8gg\	-ne	.	.
8D\L	.	.	.	4r	.	4ff#\	ple-	.	4r
8E\	.	.	.	.	.	.	.	.	.
8F#\	.	.	.	8r	.	8ee\	-na	.	8r
8D\J	.	.	.	8dd\	.	8ff#\	a-	.	8a\
=49	=49	=49	=49	=49	=49	=49	=49	=49	=49
1r	.	.	.	8ee\L	.	8gg\L	-mae-	.	8a\'L
.	.	.	.	8dd\	.	8ff#\J	.	.	8a\'
.	.	.	.	8cc#X\	.	8ee\	-na	.	8a\'
.	.	.	.	8dd\J	.	8ff#\	Se-	.	8a\'J
!	!	!	!	!LO:LB:g=original	!	!	!	!	!
.	.	.	.	8ee\L	.	8gg\L	-re-	.	8a\'L
.	.	.	.	8dd\	.	8ff#\J	.	.	8a\'
!	!	!	!	!	!	!LO:LB:g=original	!	!	!
.	.	.	.	8cc#X\	.	8ee\	-na	.	8a\'
.	.	.	.	8dd\J	.	8ff#\	So-	.	8a\'J
=50	=50	=50	=50	=50	=50	=50	=50	=50	=50
2r	.	.	.	8ee\L	.	8gg\L	-la-	.	8a\'L
.	.	.	.	8dd\	.	8ff#\J	.	.	8a\'
.	.	.	.	8cc#X\	.	8ee\	-mi-	.	8a\'
.	.	.	.	8dd\J	.	8ff#\	-ne	.	8a\'J
4r	.	.	.	8ee\L	.	8gg\L	ple-	.	8a\L
.	.	.	.	8dd\J	.	8ff#\J	.	.	8a\
8r	.	.	.	8cc#X\	.	8ee\	-na	.	8a\J
8E\	.	.	.	8r	.	8ff#\	re-	.	8r
=51	=51	=51	=51	=51	=51	=51	=51	=51	=51
!LO:TX:a:t=P:problem:mixed beam	!	!	!	!	!	!	!	!	!
8F#\L	.	2r	.	2r	.	8dd\	-ful-	0r	0r
8G\	.	.	.	.	.	16ee\LL	-get	.	.
.	.	.	.	.	.	16b\JJ	.	.	.
8A\	.	.	.	.	.	4cc#X\	di-	.	.
8AA/J	.	.	.	.	.	.	.	.	.
!	!	!	!	!LO:TX:b:t=Verte Citiſsime	!	!	!	!	!
!	!	!	!	!LO:PB:g=original	!	!	!	!	!
8D\L	.	8dd\L	.	8dd\L	.	4dd\	-es	.	.
8E\	.	8a\J	.	8a\J	.	.	.	.	.
8F#\	.	8a\L	.	8a/L	.	4r	.	.	.
8E\J	.	16b\L	.	16b\L	.	.	.	.	.
.	.	16cc#X\JJ	.	16cc#X\JJ	.	.	.	.	.
=52	=52	=52	=52	=52	=52	=52	=52	=52	=52
8D\L	.	8dd\L	.	8dd\L	.	00r	.	.	.
8E\	.	8dd\J	.	8dd\J	.	.	.	.	.
8F#\	.	8dd\L	.	8dd\L	.	.	.	.	.
8D\J	.	16cc#X\L	.	16ee\L	.	.	.	.	.
.	.	16dd\JJ	.	16ff#\JJ	.	.	.	.	.
8E\L	.	8ee\L	.	8gg\L	.	.	.	.	.
8D\J	.	16dd\L	.	16ff#\L	.	.	.	.	.
.	.	16ee\JJ	.	16gg\JJ	.	.	.	.	.
8C#X/L	.	8cc#X\L	.	8ee\L	.	.	.	.	.
8AA/J	.	8cc#\J	.	8aa\J	.	.	.	.	.
!	!	!	!	!	!	!	!	!LO:LB:g=original	!
=53	=53	=53	=53	=53	=53	=53	=53	=53	=53
8D\L	.	8dd\L	.	8ff#\L	.	.	.	2r	2r
8E\	.	8a\J	.	16ee\L	.	.	.	.	.
.	.	.	.	16ff#\JJ	.	.	.	.	.
8F#\	.	8dd\L	.	8dd\L	.	.	.	.	.
8D\J	.	16ee\L	.	16ee\L	.	.	.	.	.
.	.	16ff#\JJ	.	16ff#\JJ	.	.	.	.	.
!	!	!LO:LB:g=original	!	!	!	!	!	!	!
8G\L	.	8gg\L	.	8gg\L	.	.	.	8b\L	8dd\L
8A\	.	8dd\J	.	8dd\J	.	.	.	8g\J	8b\J
8B\	.	8dd\L	.	8dd\L	.	.	.	8g\L	8b\L
8G\J	.	16ee\L	.	16ee\L	.	.	.	16a\L	16b\L
.	.	16ff#\JJ	.	16ff#\JJ	.	.	.	16b\JJ	16cc\JJ
!	!	!	!	!	!	!	!	!	!LO:LB:g=original
=54	=54	=54	=54	=54	=54	=54	=54	=54	=54
8G\L	.	8gg\L	.	8gg\L	.	.	.	8b\L	8dd\L
8A\	.	8b\J	.	8b\J	.	.	.	8g\	8b\
8B\	.	8b\L	.	8b\L	.	.	.	8g\	8b\
8G\J	.	16cc\L	.	16cc\L	.	.	.	8a\J	8cc\J
.	.	16dd\JJ	.	16dd\JJ	.	.	.	.	.
4c\	.	8ee\L	.	8ee\L	.	.	.	8b\L	8dd\L
.	.	16ee\L	.	16ee\L	.	.	.	16cc\L	16ee\L
.	.	16dd\JJ	.	16dd\JJ	.	.	.	16b\JJ	16dd\JJ
!LO:SIC:o:s:=:v:miejsce nieczytelne	!	!	!	!	!	!	!	!	!
4ryy	.	16ee\LL	.	16cc\LL	.	.	.	8a\L	8cc\L
.	.	16dd\	.	16b\	.	.	.	.	.
.	.	16cc\	.	16a/	.	.	.	8g\J	8b\J
.	.	16b\JJ	.	16g/JJ	.	.	.	.	.
!LO:LB:g=original	!	!	!	!	!	!	!	!	!
=55	=55	=55	=55	=55	=55	=55	=55	=55	=55
8D\L	.	8a/L	.	8a/L	.	.	.	4d/	4a\
8E\	.	8d/	.	8d/	.	.	.	.	.
!	!	!	!	!	!	!	!	!LO:SIC:o:s:=:v:skreślona pauza 2r (?)	!
8F#\	.	8d/	.	8d/	.	.	.	8r	8r
8D\J	.	8g/J	.	8b\J	.	.	.	8d/	8d/
!	!	!	!	!LO:LB:g=original	!	!	!	!	!
!	!	!	!	!LO:TX:a:t=P:problem:mixed beam	!	!	!	!	!
2r	.	(8a/L	.	16cc\LL	.	.	.	8d/L	8d/L
.	.	.	.	16d/	.	.	.	.	.
.	.	8g/J)	.	16b\	.	.	.	16d/L	8d/
.	.	.	.	16d/JJ	.	.	.	16d/JJ	.
!	!	!	!	!LO:TX:a:t=P:problem:mixed beam	!	!	!	!	!
.	.	(8f#/L	.	16a\LL	.	.	.	8d/L	8d/
.	.	.	.	16d/	.	.	.	.	.
.	.	8g/J)	.	16b\	.	.	.	8d/J	8d/J
.	.	.	.	16d/JJ	.	.	.	.	.
=56	=56	=56	=56	=56	=56	=56	=56	=56	=56
!	!	!	!	!LO:TX:a:t=P:problem:mixed beam	!	!	!	!	!
2r	.	(8a/L	.	16cc\LL	.	0r	.	8d/L	8d/L
.	.	.	.	16d/	.	.	.	.	.
.	.	8g/)	.	16b\	.	.	.	8d/J	8d/
.	.	.	.	16d/JJ	.	.	.	.	.
.	.	(8f#/	.	16a\LL	.	.	.	8d\L	8d/
.	.	.	.	16d/	.	.	.	.	.
.	.	8g/J)	.	16b\	.	.	.	8g\J	8d/J
.	.	.	.	16d/JJ	.	.	.	.	.
8A\L	.	8a/L	.	8cc\L	.	.	.	8a\L	8cc\L
8G\	.	8a/	.	8cc\	.	.	.	8a\	8cc\
8F#\	.	8a/	.	8cc\	.	.	.	8a\	8cc\
8D\J	.	8a/J	.	8dd\J	.	.	.	8a\J	8cc\J
=57	=57	=57	=57	=57	=57	=57	=57	=57	=57
*	*	*	*	*	*	*	*	*	*2\right
8A\L	.	4a/	.	4cc\	.	.	.	2a\	2cc\
8G\	.	.	.	.	.	.	.	.	.
8F#\	.	4aa\	.	4aa\	.	.	.	.	.
8D\J	.	.	.	.	.	.	.	.	.
!	!	!	!	!	!	!	!	!LO:TX:a:t=P:problem:mixed beam	!
!LO:TX:a:t=P:problem:mixed beam	!	!	!	!	!	!	!	!LO:SIC:s=8cc	!
8G\L	.	8b\L	.	8b\L	.	.	.	8a\L	8b\L
8B\	.	16a/L	.	16a/L	.	.	.	8A/J	8a\J
.	.	16g/JJ	.	16g/JJ	.	.	.	.	.
!	!	!	!	!	!	!	!	!LO:TX:a:t=P:problem:mixed beam	!
!	!	!	!	!	!	!	!	!LO:SIC:s=16cc	!
8d\	.	8a/L	.	8a/L	.	.	.	16a\LL	8b\L
.	.	.	.	.	.	.	.	16d/	.
8D/J	.	8f#/J	.	8f#/J	.	.	.	16B/	16a\L
.	.	.	.	.	.	.	.	16d/JJ	16g\JJ
=58	=58	=58	=58	=58	=58	=58-	=58	=58	=58
!	!	!	!	!	!	!	!	!	!LO:TX:a:t=P:problem:mixed beam
8G\L	.	4g/	.	4g/	.	4r	.	16B/LL	16g\LL
.	.	.	.	.	.	.	.	16B/	16d/
8A\	.	.	.	.	.	.	.	16B/	16d/
.	.	.	.	.	.	.	.	16B/JJ	16d/JJ
8B\	.	4r	.	4r	.	8r	.	8G/	8B/
8G\J	.	.	.	.	.	8gg\	Gau-	8r	8r
4B\	.	2r	.	2r	.	12dd\L	-de-	2r	2r
.	.	.	.	.	.	12ee\	.	.	.
.	.	.	.	.	.	12dd\J	.	.	.
8r	.	.	.	.	.	8dd\	-te	.	.
8A\	.	.	.	.	.	8gg\	Ri-	.	.
!	!	!	!	!	!	!	!	!LO:LB:g=original	!
=59	=59	=59	=59	=59	=59	=59	=59	=59	=59
4G\	.	0r	.	1r	.	12b\L	-de-	00r	1r
.	.	.	.	.	.	12cc\	.	.	.
.	.	.	.	.	.	12b\J	.	.	.
8r	.	.	.	.	.	8b\	-te	.	.
!	!	!	!	!	!	!LO:LB:g=original	!	!	!
8A\	.	.	.	.	.	8cc\	gau-	.	.
!	!	!	!	!	!	!LO:SIC:o=4dd	!	!	!
8B\L	.	.	.	.	.	8dd\	-de-	.	.
8A\	.	.	.	.	.	(16ee\LL	-te	.	.
.	.	.	.	.	.	16dd\JJ)	.	.	.
8G\	.	.	.	.	.	(16cc\LL	mor-	.	.
.	.	.	.	.	.	16b\JJ)	.	.	.
8B\J	.	.	.	.	.	(16cc\LL	-ta-	.	.
.	.	.	.	.	.	16b\JJ)	.	.	.
=60	=60	=60	=60	=60-	=60	=60	=60	=60	=60-
!LO:TX:a:t=P:problem:mixed beam	!	!	!	!	!	!	!	!	!
8d\L	.	.	.	4r	.	4a\	.	.	4r
8D/J	.	.	.	.	.	.	.	.	.
8D\	.	.	.	8r	.	8d/	-les	.	8r
8r	.	.	.	8gg\	.	8b\	Gau-	.	8d/
2r	.	.	.	8aa\L	.	(8cc\L	-de-	.	8d/'L
.	.	.	.	8gg\	.	8b\J)	.	.	8d/'
.	.	.	.	8ff#\	.	8a\	-te	.	8d/'
.	.	.	.	8gg\J	.	8b\	ri-	.	8d/'J
=61	=61	=61	=61	=61	=61	=61	=61	=61	=61
0r	.	1r	.	8aa\L	.	(8cc\L	-de-	.	8d/'L
.	.	.	.	8gg\	.	8b\J)	.	.	8d/'
.	.	.	.	8ff#\	.	8a\	-te	.	8d/'
.	.	.	.	8gg\J	.	8b\	gau-	.	8d/'J
.	.	.	.	8aa\L	.	(8cc\L	-de-	.	8d/'L
.	.	.	.	8gg\J	.	8b\J)	.	.	8d/'
!	!	!	!	!LO:LB:g=original	!	!	!	!	!
.	.	.	.	8ff#\L	.	8a\	-te	.	8d/'
.	.	.	.	8gg\J	.	8b\	ri-	.	8d/'J
!	!	!LO:TX:a:t=Verte	!	!	!	!	!	!	!
!	!	!LO:PB:g=original	!	!	!	!	!	!	!LO:LB:g=original
=62	=62	=62	=62	=62	=62	=62	=62	=62	=62
.	.	4r	.	(8aa\L	.	(8cc\L	-de-	.	8d/'L
.	.	.	.	8gg\)	.	8b\J)	.	.	8d/'
.	.	8r	.	(8ff#\	.	8a\	-te	.	8d/'
.	.	8b\	.	8dd\J)	.	8dd\	gau-	.	8d/'J
.	.	(16cc\LL	.	16ee\LL	.	2dd\	-de-	.	8d/'L
.	.	16b\)	.	16dd\	.	.	.	.	.
.	.	(16b\	.	16dd\	.	.	.	.	8d/'
.	.	16a/JJ)	.	16cc\JJ	.	.	.	.	.
.	.	(16a/LL	.	16cc\LL	.	.	.	.	8d/'
.	.	16g/)	.	16b\	.	.	.	.	.
.	.	(16g/	.	16b\	.	.	.	.	8d/'J
.	.	16b/JJ)	.	16dd\JJ	.	.	.	.	.
!	!	!	!	!	!	!LO:LB:g=original	!	!	!
=63	=63	=63	=63	=63	=63	=63	=63	=63	=63
2r	.	(16cc\LL	.	16ee\LL	.	4.dd\	-te	0r	8d/'L
.	.	16b\)	.	16dd\	.	.	.	.	.
.	.	(16b\	.	16dd\	.	.	.	.	8d/'
.	.	16a\JJ)	.	16cc\JJ	.	.	.	.	.
.	.	8a/L	.	16cc\LL	.	.	.	.	8d/'
.	.	.	.	16b\J	.	.	.	.	.
.	.	16g/L	.	8cc\J	.	8cc\	mor-	.	8d/'J
.	.	16g/JJ	.	.	.	.	.	.	.
*	*	*	*	*	*	*Xtuplet	*	*	*
!LO:TX:a:t=P:problem:mixed beam	!	!	!	!	!	!LO:SIC:o:s:=:v:brak adnotacji	!	!	!
8G\L	.	2r	.	2r	.	12b\L	-ta-	.	2r
.	.	.	.	.	.	12a\	.	.	.
8B\	.	.	.	.	.	.	.	.	.
.	.	.	.	.	.	12g\J	.	.	.
8d\	.	.	.	.	.	(<4f#/	.	.	.
8D/J	.	.	.	.	.	.	.	.	.
!LO:PB:g=original	!	!	!	!	!	!	!	!	!
=64	=64	=64	=64	=64	=64	=64	=64	=64	=64
8G\L	.	4r	.	4r	.	4.g/)	-les	.	4r
8A\	.	.	.	.	.	.	.	.	.
8B\	.	8r	.	8r	.	.	.	.	8r
8A\J	.	8b\	.	8dd\	.	8dd\	Gau-	.	8d/
4G\	.	(16cc\LL	.	(16ee\LL	.	2dd\	-de-	.	8d/'L
.	.	16b\)	.	16dd\)	.	.	.	.	.
.	.	(16b\	.	(16dd\	.	.	.	.	8d/'
.	.	16a\JJ)	.	16cc\JJ)	.	.	.	.	.
4r	.	(16a/LL	.	(16cc\LL	.	.	.	.	8d/'
.	.	16g/)	.	16b\)	.	.	.	.	.
.	.	(16g/	.	(16b\	.	.	.	.	8d/'J
.	.	16a/JJ)	.	16dd\JJ)	.	.	.	.	.
=65	=65	=65	=65	=65	=65	=65	=65	=65	=65
2r	.	(16cc\LL	.	16ee\LL	.	4.dd\	-te	1r	8d/'L
.	.	16b\)	.	16dd\	.	.	.	.	.
.	.	(16b\	.	16dd\	.	.	.	.	8d/'
.	.	16a\JJ)	.	16cc\JJ	.	.	.	.	.
.	.	8a/L	.	8cc\L	.	.	.	.	8d/'
.	.	16g/L	.	16b\L	.	8dd\	mor-	.	8d/'J
.	.	16g/JJ	.	16a/JJ	.	.	.	.	.
!LO:TX:a:t=P:problem:mixed beam	!	!	!	!	!	!	!	!	!
8G\L	.	2r	.	2r	.	8b\L	-ta-	.	2r
8B\	.	.	.	.	.	16a\L	.	.	.
.	.	.	.	.	.	16g\JJ	.	.	.
8d\	.	.	.	.	.	4f#/	.	.	.
8D/J	.	.	.	.	.	.	.	.	.
!	!	!	!	!LO:LB:g=original	!	!	!	!	!
=66	=66	=66	=66	=66	=66	=66	=66	=66-	=66
8G\L	.	8gg\L	.	8gg\L	.	4g/	-les	8b\L	8dd\L
8A\	.	8dd\J	.	8dd\J	.	.	.	8g\J	8b\J
8B\	.	8dd\L	.	8dd\L	.	4r	.	8g\L	8b\L
8A\J	.	16ee\L	.	16ee\L	.	.	.	16g\L	16b\L
.	.	16ff#\JJ	.	16ff#\JJ	.	.	.	16a\JJ	16cc\JJ
8G\L	.	8gg\L	.	8gg\L	.	2r	.	8b\L	8dd\L
8A\	.	8b\J	.	8b\J	.	.	.	8g\	8b\
!	!	!LO:LB:g=original	!	!	!	!	!	!	!
8B\	.	8b\L	.	8b\L	.	.	.	8g\	8b\
8G\J	.	16cc\L	.	16cc\L	.	.	.	8a\J	8cc\J
.	.	16dd\JJ	.	16dd\JJ	.	.	.	.	.
=67	=67	=67	=67	=67	=67	=67;	=67	=67	=67
4c\	.	8ee\L	.	8ee\L	.	00r	.	8b\L	8dd\L
.	.	16ee\L	.	16ee\L	.	.	.	16cc\L	16ee\L
.	.	16dd\JJ	.	16dd\JJ	.	.	.	16b\JJ	16dd\JJ
4r	.	16cc\LL	.	16cc\LL	.	.	.	8a\L	8.cc\L
.	.	16b\	.	16b\	.	.	.	.	.
.	.	16a\	.	16a\	.	.	.	8g\J	.
.	.	16g\JJ	.	16g/JJ	.	.	.	.	16b\Jk
8D\L	.	8a/L	.	8a/L	.	.	.	4d/	4a\
8E\	.	8d/J	.	8d/J	.	.	.	.	.
8F#\	.	8d/L	.	8d/L	.	.	.	8r	8r
8D\J	.	8b/J	.	16a/L	.	.	.	8g\	8b\
.	.	.	.	16b/JJ	.	.	.	.	.
=68	=68	=68	=68	=68	=68	=68	=68	=68	=68
8A\L	.	8a/L	.	8cc\L	.	.	.	8a\L	8cc\L
8G\	.	8a/J	.	8cc\J	.	.	.	8a\J	8cc\J
8F#\	.	8a/L	.	8cc\L	.	.	.	8a\L	8cc\L
8D\J	.	16g/L	.	16b\L	.	.	.	16g\L	16b\L
.	.	16f#/JJ	.	16a\JJ	.	.	.	16d\JJ	16a/JJ
4G\	.	8g/L	.	8b\L	.	.	.	4g\	4b\
.	.	8a/J	.	8cc\J	.	.	.	.	.
4r	.	8b\L	.	8dd\L	.	.	.	4r	4r
.	.	16cc#X\L	.	16ee\L	.	.	.	.	.
.	.	16dd\JJ	.	16ff#\JJ	.	.	.	.	.
=69	=69	=69	=69	=69	=69	=69	=69	=69	=69
8E\L	.	8ee\L	.	8gg\L	.	.	.	2r	2r
8D\	.	16dd\L	.	16ff#\L	.	.	.	.	.
.	.	16ee\JJ	.	16gg\JJ	.	.	.	.	.
8C#X/	.	8cc#X\L	.	8ee\L	.	.	.	.	.
8AA/J	.	8cc#\J	.	8aa\J	.	.	.	.	.
8D\L	.	8cc#\L	.	8ff#\L	.	.	.	8d/L	8d/L
8E\	.	8a\	.	16ee\L	.	.	.	16d/L	16d/L
.	.	.	.	16ff#\JJ	.	.	.	16d/JJ	16d/JJ
8F#\	.	8dd\	.	8dd\L	.	.	.	8d/	8d/
8D\J	.	8ff#\J	.	8aa\J	.	.	.	8r	8r
!LO:LB:g=original	!	!	!	!LO:LB:g=original	!	!	!	!	!LO:LB:g=original
=70	=70	=70	=70	=70	=70	=70	=70	=70	=70
8G\	.	16gg\LL	f	16bb\LL	f	.	.	0r	0r
.	.	16gg\	.	16bb\	.	.	.	.	.
8r	.	16gg\	.	16bb\	.	.	.	.	.
.	.	16gg\JJ	.	16bb\JJ	.	.	.	.	.
8D\	.	16ff#\LL	.	16aa\LL	.	.	.	.	.
.	.	16ff#\	.	16aa\	.	.	.	.	.
8r	.	16ff#\	.	16aa\	.	.	.	.	.
.	.	16ff#\JJ	.	16aa\JJ	.	.	.	.	.
!LO:TX:a:t=P:problem:mixed beam	!	!	!	!	!	!	!	!	!
8E\L	.	16ee\LL	.	16gg\LL	.	.	.	.	.
.	.	16ee\	.	16gg\	.	.	.	.	.
8AA/	.	16ee\	.	16gg\	.	.	.	.	.
.	.	16ee\JJ	.	16gg\JJ	.	.	.	.	.
!	!	!LO:LB:g=original	!	!	!	!	!	!	!
8D/	.	8dd\L	.	8ff#\L	.	.	.	.	.
8F#/J	.	16ee\L	.	16gg\L	.	.	.	.	.
.	.	16ff#\JJ	.	16aa\JJ	.	.	.	.	.
=71	=71	=71	=71	=71	=71	=71	=71	=71	=71
8G\	.	16gg\LL	p	16bb\LL	p	00r	.	.	.
.	.	16gg\	.	16bb\	.	.	.	.	.
8r	.	16gg\	.	16bb\	.	.	.	.	.
.	.	16gg\JJ	.	16bb\JJ	.	.	.	.	.
8r	.	16ff#\LL	.	16aa\LL	.	.	.	.	.
.	.	16ff#\	.	16aa\	.	.	.	.	.
8D\	.	16ff#\	.	16aa\	.	.	.	.	.
.	.	16ff#\JJ	.	16aa\JJ	.	.	.	.	.
!LO:TX:a:t=P:problem:mixed beam	!	!	!	!	!	!	!	!	!
8E\L	.	16ee\LL	.	16gg\LL	.	.	.	.	.
.	.	16ee\	.	16gg\	.	.	.	.	.
8AA/	.	16ee\	.	16gg\	.	.	.	.	.
.	.	16ee\JJ	.	16gg\JJ	.	.	.	.	.
8D/	.	8dd\L	.	8ff#\L	.	.	.	.	.
8F#\J	.	8ee\J	.	8gg\J	.	.	.	.	.
=72	=72	=72	=72	=72	=72	=72	=72	=72	=72-
8F#\L	.	8ff#\L	f	8aa\L	.	.	.	1r	1r
8E\	.	16gg\L	.	16bb\L	.	.	.	.	.
.	.	16ff#\JJ	.	16aa\JJ	.	.	.	.	.
8D\	.	16ee\LL	.	16gg\LL	.	.	.	.	.
.	.	16dd\	.	16ff#\	.	.	.	.	.
8E\J	#	16cc#X\	.	16ee\	.	.	.	.	.
.	.	16dd\JJ	.	16dd\JJ	.	.	.	.	.
8A\L	.	8cc#X\L	.	8ee\L	.	.	.	.	.
8B\	.	8a\	.	8a\	.	.	.	.	.
8c#X\	.	8a\	.	8a\	.	.	.	.	.
8A\J	.	8ff#\J	.	8aa\J	.	.	.	.	.
=73	=73	=73	=73	=73	=73	=73	=73	=73	=73
!LO:TX:a:t=P:problem:mixed beam	!	!	!	!	!	!	!	!	!
8d\L	.	8dd\L	.	8ff#\L	.	.	.	8d/L	8d/L
8G\	.	8ee\J	.	16ee\L	.	.	.	16d/L	16d/L
.	.	.	.	16dd\JJ	.	.	.	16d/JJ	16d/JJ
!	!	!	!	!LO:LB:g=original	!	!	!	!	!
8A\	#	8.a/L	.	8a\L	.	.	.	16d/LL	8d/L
.	.	.	.	.	.	.	.	16d/	.
8AA/J	.	.	.	8cc#X\J	.	.	.	16d/	8d/J
.	.	16g/Jk	.	.	.	.	.	16d/JJ	.
8D/L	.	8f#/L	.	8dd\L	.	.	.	4d/	4d/
8BB/J	.	16g/L	.	16b\L	.	.	.	.	.
.	.	16a/JJ	.	16cc#X\JJ	.	.	.	.	.
8AA/	.	8b/L	.	8dd\L	.	.	.	4r	8r
8r	.	8b/J	.	8dd\J	.	.	.	.	8d/
=74	=74	=74	=74	=74	=74	=74	=74	=74	=74
0r	.	(16cc\LL	.	(16ee\LL	p	.	.	0r	8d/'L
.	.	16b\)	.	16dd\)	.	.	.	.	.
.	.	(16b\	.	(16dd\	.	.	.	.	8d/'
.	.	16a\JJ)	.	16cc\JJ)	.	.	.	.	.
.	.	(16a/LL	.	(16cc\LL	.	.	.	.	8d/'
.	.	16g/)	.	16b\)	.	.	.	.	.
.	.	(16g/	.	(16b\	.	.	.	.	8d/'J
.	.	16a/JJ)	.	16cc\JJ)	.	.	.	.	.
!	!	!LO:LB:g=original	!	!	!	!	!	!	!
.	.	(16b/LL	.	(16dd\LL	.	.	.	.	8d/'L
.	.	16a/)	.	16cc\)	.	.	.	.	.
.	.	(16a/	.	(16cc\	.	.	.	.	8d/'
.	.	16g/JJ)	.	16b\JJ)	.	.	.	.	.
.	.	(16g/LL	.	(16b\LL	.	.	.	.	8d/'
.	.	16f#/)	.	16a\)	.	.	.	.	.
.	.	(16f#/	.	(16a\	.	.	.	.	8d/'J
.	.	16b/JJ)	.	16dd\JJ)	.	.	.	.	.
=75	=75	=75	=75	=75	=75	=75	=75	=75	=75
.	.	(16cc\LL	.	(16ee\LL	.	0r	.	.	8d/'L
.	.	16b\)	.	16dd\)	.	.	.	.	.
.	.	(16b\	.	(16dd\	.	.	.	.	8d/'
.	.	16a\JJ)	.	16cc\JJ)	.	.	.	.	.
.	.	(16a/LL	.	(16cc\LL	.	.	.	.	8d/'
.	.	16g/)	.	16b\)	.	.	.	.	.
.	.	(16g/	.	(16b\	.	.	.	.	8d/'J
.	.	16a/JJ)	.	16cc\JJ)	.	.	.	.	.
.	.	(16b/LL	.	(16dd\LL	.	.	.	.	8d/'L
.	.	16a/)	.	16cc\)	.	.	.	.	.
.	.	(16a/	.	(16cc\	.	.	.	.	8d/'
.	.	16g/JJ)	.	16b\JJ)	.	.	.	.	.
.	.	(16g/LL	.	(16b\LL	.	.	.	.	8d/'
.	.	16f#/)	.	16a\)	.	.	.	.	.
.	.	(16f#/	.	(16a\	.	.	.	.	8d/'J
.	.	16g/JJ)	.	16b\JJ)	.	.	.	.	.
=76-	=76	=76	=76	=76	=76	=76	=76	=76	=76
2r	.	16a/LL	.	(16cc\LL	.	.	.	2r	4d/
.	.	16g/	.	16b\)	.	.	.	.	.
.	.	16g/	.	(16b\	.	.	.	.	.
.	.	16a/JJ	.	16cc\JJ)	.	.	.	.	.
!	!	!	!	!LO:LB:g=original	!	!	!	!	!
.	.	16a/LL	.	(16cc\LL	.	.	.	.	4r
.	.	16g/	.	16b\)	.	.	.	.	.
.	.	16g/	.	(16b\	.	.	.	.	.
.	.	16a/JJ	.	16cc\JJ)	.	.	.	.	.
8G\L	.	4b\	.	4dd\	.	.	.	4b\	4dd\
8A\	.	.	.	.	.	.	.	.	.
8B\	.	4gg\	.	4gg\	.	.	.	4a\	4cc\
8G\J	.	.	.	.	.	.	.	.	.
!	!	!	!	!	!	!	!	!LO:TX:b:t=Verte Cito	!
!	!	!	!	!	!	!	!	!LO:PB:g=original	!
=77	=77	=77	=77	=77	=77	=77-	=77	=77	=77
!LO:TX:a:t=P:problem:mixed beam	!	!	!	!	!	!	!	!	!
8G\L	.	8b/L	.	8b/L	.	2r	.	4g\	4b\
8B\	.	16a/L	.	16a/L	.	.	.	.	.
.	.	16g/JJ	.	16g/JJ	.	.	.	.	.
8d\	.	8a/L	.	8a/L	.	.	.	16d/LL	16a\LL
.	.	.	.	.	.	.	.	16B/	16cc\
8D/J	.	8f#/J	.	8f#/J	.	.	.	16G/	16b\
.	.	.	.	.	.	.	.	16d/JJ	16a\JJ
!LO:LB:g=original	!	!	!	!	!	!	!	!	!
!LO:TX:a:t=finis	!	!	!	!	!	!	!	!	!LO:TX:a:t=P:problem:mixed beam
8G\;	.	4g/	.	4g/	.	4r	.	16B/LL	16g\LL
.	.	.	.	.	.	.	.	16B/	16d/
8F#\L	.	.	.	.	.	.	.	16B/	16d/
.	.	.	.	.	.	.	.	16B/JJ	16d/JJ
8E\	.	4r	.	4r;	.	8r	.	8G/	8B/;
8D\J	#	.	.	.	.	8b\	Iam	8r	8r
!	!	!	!	!	!	!	!	!LO:TX:b:t=finis	!
=78	=78	=78	=78	=78	=78	=78	=78	=;	=78
8.E\L	.	1r	.	1r	.	4ee\	Cor-	0r	0r
16E\Jk	.	.	.	.	.	.	.	.	.
8F#\L	#	.	.	.	.	8dd#X\	-da	.	.
!	!	!	!	!	!	!LO:TX:b:t=Verte.	!	!	!
!	!	!	!	!	!	!LO:PB:g=original	!	!	!
8E\J	.	.	.	.	.	8ee\	pa-	.	.
8D#X\L	.	.	.	.	.	4ff#\	-ra-	.	.
8C#X\J	.	.	.	.	.	.	.	.	.
8BB/L	.	.	.	.	.	8b\	-te	.	.
8E/J	.	.	.	.	.	8cc\	et	.	.
=79	=79	=79	=79	=79	=79	=79	=79	=79	=79
8F#\L	.	2r	.	2r	.	4b\	vo-	.	.
8E\J	.	.	.	.	.	.	.	.	.
8D#X/L	.	.	.	.	.	8a\	-ta	.	.
8BB/J	.	.	.	.	.	8b\	di-	.	.
8E\L	.	4r	.	4r	.	4g/	-ca-	.	.
8F#\	.	.	.	.	.	.	.	.	.
8G\	.	8r	.	8r	.	8e/	-te	.	.
8E\J	.	8gg\	.	8bb\	.	8r	.	.	.
!	!	!LO:LB:g=original	!	!	!	!	!	!	!
=80	=80	=80	=80	=80	=80	=80	=80	=80	=80
4A\	.	8aa\L	.	8ccc\L	.	0r	.	1r	1r
.	.	8gg\J	.	8bb\J	.	.	.	.	.
8r	.	8aa\L	.	8ccc\L	.	.	.	.	.
8F#\	.	16gg\L	.	16bb\L	.	.	.	.	.
.	.	16ff#\JJ	.	16aa\JJ	.	.	.	.	.
4G\	.	8gg\L	.	8bb\L	.	.	.	.	.
.	.	8ff#\J	.	8aa\J	.	.	.	.	.
8r	.	8gg\L	.	8bb\L	.	.	.	.	.
8E\	.	16ff#\L	.	16aa\L	.	.	.	.	.
.	.	16ee\JJ	.	16gg\JJ	.	.	.	.	.
=81	=81	=81	=81	=81	=81	=81	=81	=81-	=81-
4F#\	.	8ff#\L	.	8aa\L	.	.	.	2r	2r
.	.	8ee\J	.	8gg\J	.	.	.	.	.
8D#X/L	.	8ff#\L	.	8aa\L	.	.	.	.	.
8BB/J	.	16ee\L	.	16gg\L	.	.	.	.	.
.	.	16dd#X\JJ	.	16ff#\JJ	.	.	.	.	.
8E\L	.	8ee\L	.	8gg\L	.	.	.	8B/L	8B/L
8F#\	.	8b\	.	16ff#\L	.	.	.	16B/L	16B/L
.	.	.	.	16gg\JJ	.	.	.	16B/JJ	16B/J
8G\	.	8b\	.	8ee\L	.	.	.	8B/	8B/J
8E\J	.	8gg\J	.	8bb\J	.	.	.	8r	8r
!LO:LB:g=original	!	!	!	!	!	!	!	!	!
=82	=82	=82	=82	=82	=82	=82	=82	=82	=82
8F#\L	.	8ff#\L	.	8aa\L	.	1r	.	1r	1r
8E\	.	8ff#\	.	8aa\	.	.	.	.	.
8D\	.	8ff#\	.	8aa\	.	.	.	.	.
8BB/J	.	8ff#\J	.	8aa\J	.	.	.	.	.
!	!	!	!	!LO:LB:g=original	!	!	!	!	!
8F#\L	.	4dd#X\	.	4b\	.	.	.	.	.
8E\	.	.	.	.	.	.	.	.	.
!	!	!LO:SIC:s=4dd#	!	!	!	!	!	!	!
8D\	.	4ee\	.	4aa\	.	.	.	.	.
8F#\J	.	.	.	.	.	.	.	.	.
=83	=83	=83	=83	=83	=83	=83-	=83	=83	=83
!LO:TX:a:t=P:problem:mixed beam	!	!	!	!	!	!	!	!	!
8G\L	.	8b/L	.	8gg\L	.	2r	.	8B/L	8B/L
8A\	.	8b/	.	16ff#\L	.	.	.	16B/L	16B/L
.	.	.	.	16ee\JJ	.	.	.	16B/JJ	16B/JJ
8B\	.	8b/	.	8b\L	.	.	.	8B/L	8B/L
!LO:SIC:o:s:=:v:skreślone 2,5 taktu, na obrzeżach adnotacje "vi" i "de"	!	!	!	!	!	!	!	!	!
8BB/J	.	8b\J	.	8dd#X\J	.	.	.	8B/J	8B/J
8E\L	.	4g#X/	.	4ee\	.	4r	.	4B/	4B/
8F#\J	.	.	.	.	.	.	.	.	.
8E\L	.	4r	.	4r	.	8r	.	4r	4r
8D#X\J	.	.	.	.	.	8b\	Iam	.	.
=84	=84	=84	=84	=84	=84	=84	=84	=84	=84
8E\L	.	1r	.	1r	.	4ee\	Cor-	00r	00r
8E\	.	.	.	.	.	.	.	.	.
8F#\	.	.	.	.	.	8dd#X\	-da	.	.
8E\J	.	.	.	.	.	8ee\	pa-	.	.
8D\L	.	.	.	.	.	4ff#\	-ra-	.	.
8C\	.	.	.	.	.	.	.	.	.
8BB\	.	.	.	.	.	8b\	-te	.	.
!	!	!	!	!	!	!LO:LB:g=original	!	!	!
8E\J	.	.	.	.	.	8cc\	et	.	.
!LO:LB:g=original	!	!	!	!	!	!	!	!	!
=85	=85	=85-	=85	=-	=85	=85	=85	=85	=85
8F#\L	.	2r	.	2r	.	4b\	vo-	.	.
8E\	.	.	.	.	.	.	.	.	.
8D#X\	.	.	.	.	.	8a\	-ta	.	.
8BB/J	.	.	.	.	.	8b\	di-	.	.
8E\L	.	4r	.	4r	.	4g\	-ca-	.	.
8F#\	.	.	.	.	.	.	.	.	.
8G\	.	8r	.	8r	.	8e/	-te	.	.
8E\J	.	8g/	.	8b\	.	8b\	di-	.	.
=86	=86	=86	=86	=86	=86	=86	=86	=86	=86
0r	.	16a/LL	.	16cc\LL	.	2cc\	-ca-	.	.
.	.	16b/	.	16dd\	.	.	.	.	.
.	.	16g/	.	16b\	.	.	.	.	.
.	.	16b/JJ	.	16dd\JJ	.	.	.	.	.
!	!	!LO:LB:g=original	!	!	!	!	!	!	!
.	.	16a/LL	.	16cc\LL	.	.	.	.	.
.	.	16b/	.	16dd\	.	.	.	.	.
.	.	16f#/	.	16a\	.	.	.	.	.
.	.	16a/JJ	.	16cc\JJ	.	.	.	.	.
.	.	16g/LL	.	16b\LL	.	2b\	.	.	.
.	.	16a/	.	16cc\	.	.	.	.	.
.	.	16f#/	.	16a\	.	.	.	.	.
.	.	16a/JJ	.	16cc\JJ	.	.	.	.	.
.	.	16g/LL	.	16b\LL	.	.	.	.	.
.	.	16a/	.	16cc\	.	.	.	.	.
.	.	16e/	.	16g\	.	.	.	.	.
.	.	16g/JJ	.	16b\JJ	.	.	.	.	.
=87	=87	=87	=87	=87	=87	=87	=87	=87	=87
.	.	16f#/LL	.	16a/LL	.	2a\	.	.	.
.	.	16g/	.	16b/	.	.	.	.	.
.	.	16e/	.	16g/	.	.	.	.	.
.	.	16g/JJ	.	16b/JJ	.	.	.	.	.
.	.	16f#/LL	.	16a/LL	.	.	.	.	.
.	.	16g/	.	16b/	.	.	.	.	.
.	.	16d#X/	.	16f#/	.	.	.	.	.
.	.	16f#/JJ	.	16a/JJ	.	.	.	.	.
.	.	16e/LL	.	16g/LL	.	4.g/	.	.	.
.	.	16f#/	.	16a/	.	.	.	.	.
.	.	16d#X/	.	16f#/	.	.	.	.	.
.	.	16f#/JJ	.	16a/JJ	.	.	.	.	.
!	!	!	!	!LO:LB:g=original	!	!	!	!	!
.	.	16e/LL	.	16g\LL	.	.	.	.	.
.	.	16f#/J	.	16a/	.	.	.	.	.
.	.	8d#/J	.	16f#/	.	16f#/LL	.	.	.
.	.	.	.	16g/JJ	.	16e/JJ	.	.	.
!	!	!	!	!	!	!	!	!	!LO:LB:g=original
=88-	=88	=88	=88	=88	=88	=88	=88	=88	=88
2r	.	16e/LL	.	16e/LL	.	8d#X/L	.	8B/L	8B/L
.	.	16f#/	.	16f#/	.	.	.	.	.
.	.	16g/	.	16g/	.	16e/L	.	16B/L	16B/L
.	.	16a/JJ	.	16a/JJ	.	16f#/JJ	.	16B/JJ	16B/JJ
!	!	!LO:TX:a:t=P:problem:mixed beam	!	!LO:TX:a:t=P:problem:mixed beam	!	!	!	!	!
.	.	8b\L	.	8b\L	.	8.f#/L	.	8B/L	8B/L
.	.	8B/J	.	8B/J	.	.	.	8B/J	8B/J
.	.	.	.	.	.	16e/Jk	.	.	.
4r	.	4e/	.	4e/	.	4e/	-te	4B/	4B/
8r	.	8r	.	4r	.	4r	.	4r	4r
8E\	.	8gg\	.	.	.	.	.	.	.
!	!	!	!	!	!	!LO:LB:g=original	!	!	!
=89	=89	=89	=89	=89	=89	=89	=89	=89	=89
!	!	!	!	!	!	!	!	!LO:TX:a:t=1	!
8F#\L	.	8ff#\L	.	8aa\L	.	1r	.	1r	1r
8E\	.	8ff#\	.	8aa\	.	.	.	.	.
8D#X\	.	8ff#\	.	8aa\	.	.	.	.	.
8BB/J	.	8ff#\J	.	8aa\J	.	.	.	.	.
8F#\L	.	4dd#X\	.	4b\	.	.	.	.	.
8E\	.	.	.	.	.	.	.	.	.
!	!	!LO:SIC:s=:v:4dd#	!	!	!	!	!	!	!
8D#\	.	4ee\	.	4aa\	.	.	.	.	.
8F#\J	.	.	.	.	.	.	.	.	.
!	!	!LO:LB:g=original	!	!	!	!	!	!LO:LB:g=original	!
=90	=90	=90	=90	=90	=90	=90-	=90	=90	=90
!LO:TX:a:t=P:problem:mixed beam	!	!	!	!	!	!	!	!	!
8G\L	.	8b\L	.	8gg\L	.	2r	.	8B/L	8B/L
8A\	.	8b\	.	16ff#\L	.	.	.	16B/L	16B/L
.	.	.	.	16ee\JJ	.	.	.	16B/JJ	16B/JJ
8B\	#	8b\	.	8b\L	.	.	.	8B/L	8B/L
8BB/J	.	8b\J	.	8dd#X\J	.	.	.	8B/J	8B/J
4E\	.	4g#X/	.	4ee\	.	4r	.	4B/	4B/
4r	.	8r	.	8r	.	8r	.	4r	4r
!	!	!LO:SIC:s=8gn	!	!	!	!	!	!	!
.	.	8g-X/	.	8b\	.	8b\	di-	.	.
=91	=91	=91	=91	=91	=91	=91	=91	=91	=91
0r	.	16a/LL	.	16cc\LL	.	2cc\	-ca-	0r	0r
.	.	16b/	.	16dd\	.	.	.	.	.
.	.	16g/	.	16b\	.	.	.	.	.
.	.	16b/JJ	.	16dd\JJ	.	.	.	.	.
.	.	16a/LL	.	16cc\LL	.	.	.	.	.
.	.	16b/	.	16dd\	.	.	.	.	.
.	.	16f#/	.	16a\	.	.	.	.	.
.	.	16a/JJ	.	16cc\JJ	.	.	.	.	.
.	.	16g/LL	.	16b\LL	.	2b\	.	.	.
.	.	16a/	.	16cc\	.	.	.	.	.
.	.	16f#/	.	16a\	.	.	.	.	.
.	.	16a/JJ	.	16cc\JJ	.	.	.	.	.
.	.	16g/LL	.	16b\LL	.	.	.	.	.
.	.	16a/	.	16cc\	.	.	.	.	.
.	.	16e/	.	16g\	.	.	.	.	.
.	.	16g/JJ	.	16b\JJ	.	.	.	.	.
=92	=92	=92	=92	=92	=92	=92	=92	=92	=92
.	.	16f#/LL	.	16a/LL	.	2a\	.	.	.
.	.	16g/	.	16b/	.	.	.	.	.
.	.	16e/	.	16g/	.	.	.	.	.
.	.	16g/JJ	.	16b/JJ	.	.	.	.	.
.	.	16f#/LL	.	16g/LL	.	.	.	.	.
.	.	16g/	.	16a/	.	.	.	.	.
.	.	16d#X/	.	16f#/	.	.	.	.	.
.	.	16f#/JJ	.	16a/JJ	.	.	.	.	.
.	.	16e/LL	.	16g/LL	.	4.g/	.	.	.
.	.	16f#/	.	16a/	.	.	.	.	.
.	.	16d#X/	.	16f#/	.	.	.	.	.
.	.	16f#/JJ	.	16a/JJ	.	.	.	.	.
!	!	!	!	!LO:LB:g=original	!	!	!	!	!
.	.	16e/LL	.	16g/LL	.	.	.	.	.
.	.	16f#/J	.	16a/	.	.	.	.	.
.	.	8d#X/J	.	16f#/	.	16f#/LL	.	.	.
.	.	.	.	16a/JJ	.	16e/JJ	.	.	.
=93	=93	=93	=93	=93	=93	=93	=93	=93	=93
!	!	!	!	!	!	!LO:SIC:s=8d#	!	!	!
2r	.	16e/LL	.	16e/LL	.	8d/L	.	8B/L	8B/L
.	.	16f#/	.	16f#/	.	.	.	.	.
.	.	16g/	.	16g/	.	16e/L	.	16B/L	16B/L
.	.	16a/JJ	.	16a/JJ	.	16f#/JJ	.	16B/JJ	16B/JJ
!	!	!LO:LB:g=original	!	!	!	!	!	!	!
!	!	!LO:TX:a:t=P:problem:mixed beam	!	!LO:TX:a:t=P:problem:mixed beam	!	!	!	!	!
.	.	8b\L	.	8b\L	.	8.f#/L	.	8B/L	8B/L
.	.	8B/J	.	8B/J	.	.	.	8B/J	8B/J
.	.	.	.	.	.	16e/Jk	.	.	.
!	!	!LO:TX:a:t=P:problem:mixed beam	!	!LO:TX:a:t=P:problem:mixed beam	!	!	!	!	!
4r	.	8e/L	.	8e/L	.	4e/	-te	4B/	4B/
.	.	8b\	.	8g/	.	.	.	.	.
8r	.	8ee\	.	8ee\	.	4r	.	4r	4r
8E\	.	8gg\J	.	8bb\J	.	.	.	.	.
=94	=94	=94	=94	=94	=94	=94	=94	=94	=94
4A\	.	8aa\L	.	8ccc\L	.	0r	.	0r	0r
.	.	8gg\J	.	8bb\J	.	.	.	.	.
8r	.	8aa\L	.	8ccc\L	.	.	.	.	.
8F#\	.	16gg\L	.	16bb\L	.	.	.	.	.
.	.	16ff#\JJ	.	16aa\JJ	.	.	.	.	.
!LO:LB:g=original	!	!	!	!	!	!	!	!	!
4G\	.	8gg\L	.	8bb\L	.	.	.	.	.
.	.	8ff#\J	.	8aa\J	.	.	.	.	.
8r	.	8gg\L	.	8bb\L	.	.	.	.	.
8F#\	.	16ff#\L	.	16aa\L	.	.	.	.	.
.	.	16ee\JJ	.	16gg\JJ	.	.	.	.	.
=95	=95	=95	=95	=95	=95	=95	=95	=95	=95
4F#\	.	8ff#\L	.	8aa\L	.	.	.	.	.
.	.	8ee\J	.	8gg\J	.	.	.	.	.
!LO:TX:a:t=P:problem: # below	!	!	!	!	!	!	!	!	!
8D#X/L	.	8ff#\L	.	8aa\L	.	.	.	.	.
8BB/J	.	16ee\L	.	16gg\L	.	.	.	.	.
!	!	!LO:TX:a:t=P:problem: # above	!	!	!	!	!	!	!
.	.	16dd#X\JJ	.	16ff#\JJ	.	.	.	.	.
8E\L	.	8ee\L	.	8gg\L	.	.	.	.	.
8F#\	.	8b\	.	16ff#\L	.	.	.	.	.
.	.	.	.	16gg\JJ	.	.	.	.	.
8G\	.	8b\	.	8ee\L	.	.	.	.	.
8E\J	.	8gg\J	.	8bb\J	.	.	.	.	.
=96	=96	=96	=96	=96	=96	=96-	=96	=96	=96
8F#\L	.	8ff#\L	.	8aa\L	.	2r	.	1r	1r
8E\	.	8ff#\	.	8aa\	.	.	.	.	.
8D#X\	.	8ff#\	.	8aa\	.	.	.	.	.
8BB/J	.	8ff#\J	.	8aa\J	.	.	.	.	.
8F#\L	.	4dd#X\	.	4b/	.	4r	.	.	.
8E\	.	.	.	.	.	.	.	.	.
!	!	!LO:SIC:s=4dd#	!	!	!	!	!	!	!
8D#X\	.	4ee\	.	4aa\	.	8r	.	.	.
8F#\J	.	.	.	.	.	8dd#X\	di-	.	.
!	!	!	!	!	!	!LO:LB:g=original	!	!	!
=97	=97	=97	=97	=97	=97	=97	=97	=97	=97
!LO:TX:a:t=P:problem:mixed beam	!	!	!	!	!	!	!	!	!
8G\L	.	8b\L	.	8gg\L	.	8ee\L	-ca-	8B/L	8B/L
8A\	.	8b\	.	16ff#\L	.	16ff#\L	.	16B/L	16B/L
.	.	.	.	16ee\JJ	.	16cc#X\JJ	.	16B/JJ	16B/JJ
8B\	#	8b\	.	8b\L	.	4dd#X\	.	8B/L	8B/L
8BB/J	.	8b\J	.	8dd#X\J	.	.	.	8B/J	8B/J
8E\L	.	4g/	.	4ee\	.	4ee\	-te	4B/	4B/
8D\	.	.	.	.	.	.	.	.	.
8E\	.	4r	.	4r	.	4r	.	4r	4r
8F#\J	.	.	.	.	.	.	.	.	.
!	!	!	!	!LO:TX:a:t=Da Capo uſq(ue) ad finis	!	!LO:TX:a:t=Ad M.D.Gloriam	!	!	!
!LO:TX:a:t=Da Capo	!	!LO:TX:a:t=Da Capo usq(ue) ad ſignum ſinis	!	!LO:SIC:o:s:=:v:kreska z obustronną repetycją	!	!LO:TX:a:t=Da Capo usq(ue) ad ſignu(m) ſinis.	!	!LO:TX:a:t=Da Capo	!LO:TX:a:t=Da Capo uſq(ue) ad ſ(ignum) finis
!	!	!	!	!	!	!	!	!LO:TX:b:t=uſq(ue) ad ſignu(m) finis	!
==	==	==	==	==:||:	==	==	==	==	==
*-	*-	*-	*-	*-	*-	*-	*-	*-	*-
!!!system-decoration: [(s1,s2)][(s3)][(s4,s5)][(s6)]
!!!RDF**kern: > = above
!!!RDF**kern: < = below
!!!RDF**dynam: p = piano
!!!RDF**dynam: f = forte
!!!EED: Leszek Kubiak
!!!EST: 2020-12-06
!!!ENC: Kamil Watkowski
!!!END: 2020-05-23
